; generated by Slic3r 1.2.9 on 2021-07-31 at 11:07:58

; external perimeters extrusion width = 0.40mm
; perimeters extrusion width = 0.48mm
; infill extrusion width = 0.48mm
; solid infill extrusion width = 0.48mm
; top infill extrusion width = 0.48mm

M107
M104 S190 ; set temperature
G28 ; home all axes
G1 Z5 F5000 ; lift nozzle

M109 S190 ; wait for temperature to be reached
G21 ; set units to millimeters
G90 ; use absolute coordinates
M82 ; use absolute distances for extrusion
G92 E0
G1 Z0.350 F3000.000
G1 E-2.00000 F2400.00000
G92 E0
G1 X54.022 Y51.598 F3000.000
G1 E2.00000 F2400.00000
G1 X55.137 Y50.431 E2.14670 F540.000
G1 X58.184 Y48.389 E2.48030
G1 X61.601 Y47.053 E2.81390
G1 X66.000 Y46.469 E3.21741
G1 X84.000 Y46.469 E4.85410
G1 X87.647 Y46.868 E5.18769
G1 X91.121 Y48.046 E5.52129 F540.000
G1 X94.259 Y49.946 E5.85489
G1 X96.912 Y52.480 E6.18849
G1 X98.955 Y55.528 E6.52209
G1 X100.291 Y58.945 E6.85568
G1 X100.874 Y63.344 E7.25920
G1 X100.874 Y86.656 E9.37897
G1 X100.476 Y90.303 E9.71257
G1 X99.298 Y93.778 E10.04616
G1 X97.397 Y96.916 E10.37976
G1 X94.863 Y99.569 E10.71336
G1 X91.816 Y101.611 E11.04696
G1 X88.399 Y102.947 E11.38056
G1 X84.000 Y103.531 E11.78407
G1 X66.000 Y103.531 E13.42076
G1 X62.353 Y103.132 E13.75435
G1 X58.879 Y101.954 E14.08795
G1 X55.741 Y100.054 E14.42155
G1 X53.088 Y97.520 E14.75515
G1 X51.045 Y94.472 E15.08875
G1 X49.709 Y91.055 E15.42234
G1 X49.126 Y86.656 E15.82586
G1 X49.126 Y63.344 E17.94563
G1 X49.524 Y59.697 E18.27923
G1 X50.702 Y56.222 E18.61282
G1 X52.603 Y53.084 E18.94642
G1 X53.981 Y51.641 E19.12786
G1 X54.469 Y52.037 F3000.000
G1 X55.747 Y50.737 E19.29361 F540.000
G1 X58.774 Y48.789 E19.62096
G1 X62.156 Y47.555 E19.94830
G1 X66.000 Y47.094 E20.30034
G1 X84.000 Y47.094 E21.93703
G1 X87.578 Y47.493 E22.26437
G1 X90.980 Y48.670 E22.59172 F540.000
G1 X94.039 Y50.567 E22.91906
G1 X96.606 Y53.091 E23.24640
G1 X98.554 Y56.118 E23.57375
G1 X99.788 Y59.500 E23.90109
G1 X100.250 Y63.344 E24.25314
G1 X100.250 Y86.656 E26.37290
G1 X99.851 Y90.234 E26.70025
G1 X98.674 Y93.636 E27.02759
G1 X96.777 Y96.696 E27.35494
G1 X94.253 Y99.263 E27.68228
G1 X91.226 Y101.211 E28.00962
G1 X87.844 Y102.445 E28.33697
G1 X84.000 Y102.906 E28.68901
G1 X66.000 Y102.906 E30.32569
G1 X62.422 Y102.507 E30.65304
G1 X59.020 Y101.330 E30.98038
G1 X55.961 Y99.433 E31.30773
G1 X53.394 Y96.909 E31.63507
G1 X51.446 Y93.882 E31.96242
G1 X50.212 Y90.500 E32.28976
G1 X49.750 Y86.656 E32.64180
G1 X49.750 Y63.344 E34.76157
G1 X50.149 Y59.766 E35.08892
G1 X51.326 Y56.364 E35.41626
G1 X53.223 Y53.304 E35.74360
G1 X54.427 Y52.080 E35.89974
G1 X54.906 Y52.480 F3000.000
G1 X56.356 Y51.050 E36.08492 F540.000
G1 X59.362 Y49.199 E36.40589
G1 X62.706 Y48.070 E36.72686
G1 X66.000 Y47.719 E37.02809
G1 X84.000 Y47.719 E38.66477
G1 X87.507 Y48.118 E38.98574
G1 X90.835 Y49.294 E39.30671 F540.000
G1 X93.815 Y51.186 E39.62768
G1 X96.293 Y53.700 E39.94865
G1 X98.144 Y56.705 E40.26962
G1 X99.273 Y60.050 E40.59059
G1 X99.625 Y63.344 E40.89182
G1 X99.625 Y86.656 E43.01159
G1 X99.226 Y90.163 E43.33256
G1 X98.050 Y93.492 E43.65352
G1 X96.157 Y96.471 E43.97449
G1 X93.644 Y98.950 E44.29546
G1 X90.638 Y100.801 E44.61643
G1 X87.294 Y101.930 E44.93740
G1 X84.000 Y102.281 E45.23863
G1 X66.000 Y102.281 E46.87532
G1 X62.493 Y101.882 E47.19628
G1 X59.165 Y100.706 E47.51725
G1 X56.185 Y98.814 E47.83822
G1 X53.707 Y96.300 E48.15919
G1 X51.856 Y93.295 E48.48016
G1 X50.727 Y89.950 E48.80113
G1 X50.375 Y86.656 E49.10236
G1 X50.375 Y63.344 E51.22213
G1 X50.774 Y59.837 E51.54310
G1 X51.950 Y56.508 E51.86407
G1 X53.843 Y53.529 E52.18503
G1 X54.863 Y52.523 E52.31537
G1 E50.31537 F2400.00000
G92 E0
G1 X83.025 Y85.681 F3000.000
G1 E2.00000 F2400.00000
G1 X66.975 Y85.681 E3.45939 F540.000
G1 X66.975 Y64.319 E5.40187
G1 X83.025 Y64.319 E6.86126
G1 X83.025 Y85.621 E8.79827
G1 X83.650 Y86.306 F3000.000
G1 X66.350 Y86.306 E10.37131 F270.000
G1 X66.350 Y63.694 E12.42742
G1 X83.650 Y63.694 E14.00046
G1 X83.650 Y86.246 E16.05112
G1 X83.303 Y86.106 F3000.000
G1 X67.659 Y85.303 F3000.000
G1 X67.354 Y84.998 E16.09129 F360.000
G1 X67.354 Y84.093 E16.17552
G1 X68.564 Y85.303 E16.33482
G1 X69.468 Y85.303 E16.41906
G1 X67.354 Y83.188 E16.69748
G1 X67.354 Y82.283 E16.78172
G1 X70.373 Y85.303 E17.17928
G1 X71.278 Y85.303 E17.26351
G1 X67.354 Y81.378 E17.78020
G1 X67.354 Y80.473 E17.86443
G1 X72.183 Y85.303 E18.50025
G1 X73.088 Y85.303 E18.58448
G1 X67.354 Y79.569 E19.33942
G1 X67.354 Y78.664 E19.42366
G1 X73.993 Y85.303 E20.29773
G1 X74.897 Y85.303 E20.38197
G1 X67.354 Y77.759 E21.37517
G1 X67.354 Y76.854 E21.45940
G1 X75.802 Y85.303 E22.57173
G1 X76.707 Y85.303 E22.65597
G1 X67.354 Y75.949 E23.88742
G1 X67.354 Y75.045 E23.97166
G1 X77.612 Y85.303 E25.32224
G1 X78.517 Y85.303 E25.40648
G1 X67.354 Y74.140 E26.87619
G1 X67.354 Y73.235 E26.96043
G1 X79.421 Y85.303 E28.54927
G1 X80.326 Y85.303 E28.63351
G1 X67.354 Y72.330 E30.34148
G1 X67.354 Y71.425 E30.42572
G1 X81.231 Y85.303 E32.25281
G1 X82.136 Y85.303 E32.33705
G1 X67.354 Y70.521 E34.28328
G1 X67.354 Y69.616 E34.36752
G1 X82.646 Y84.908 E36.38095
G1 X82.646 Y84.003 E36.46519
G1 X67.354 Y68.711 E38.47863
G1 X67.354 Y67.806 E38.56286
G1 X82.646 Y83.099 E40.57630
G1 X82.646 Y82.194 E40.66054
G1 X67.354 Y66.901 E42.67398
G1 X67.354 Y65.997 E42.75821
G1 X82.646 Y81.289 E44.77165
G1 X82.646 Y80.384 E44.85589
G1 X67.354 Y65.092 E46.86932
G1 X67.864 Y64.697 E46.92938
G1 X82.646 Y79.479 E48.87561
G1 X82.646 Y78.575 E48.95984
G1 X68.769 Y64.697 E50.78695
G1 X69.674 Y64.697 E50.87118
G1 X82.646 Y77.670 E52.57916
G1 X82.646 Y76.765 E52.66339
G1 X70.579 Y64.697 E54.25224
G1 X71.483 Y64.697 E54.33647
G1 X82.646 Y75.860 E55.80619
G1 X82.646 Y74.955 E55.89043
G1 X72.388 Y64.697 E57.24101
G1 X73.293 Y64.697 E57.32525
G1 X82.646 Y74.051 E58.55671
G1 X82.646 Y73.146 E58.64094
G1 X74.198 Y64.697 E59.75327
G1 X75.103 Y64.697 E59.83751
G1 X82.646 Y72.241 E60.83071
G1 X82.646 Y71.336 E60.91495
G1 X76.007 Y64.697 E61.78902
G1 X76.912 Y64.697 E61.87326
G1 X82.646 Y70.431 E62.62820
G1 X82.646 Y69.527 E62.71244
G1 X77.817 Y64.697 E63.34825
G1 X78.722 Y64.697 E63.43249
G1 X82.646 Y68.622 E63.94918
G1 X82.646 Y67.717 E64.03342
G1 X79.627 Y64.697 E64.43097
G1 X80.532 Y64.697 E64.51521
G1 X82.646 Y66.812 E64.79364
G1 X82.646 Y65.907 E64.87788
G1 X81.436 Y64.697 E65.03718
G1 X82.341 Y64.697 E65.12141
G1 X82.646 Y65.002 E65.16159
G1 Z0.650 F3000.000
G1 X83.422 Y86.079 F3000.000
G1 X66.578 Y86.079 E66.04165 F1800.000
G1 X66.578 Y63.921 E67.19928
G1 X83.422 Y63.921 E68.07934
G1 X83.422 Y86.019 E69.23383
G1 X83.800 Y86.456 F3000.000
G1 X66.200 Y86.456 E69.97055 F900.000
G1 X66.200 Y63.544 E70.92966
G1 X83.800 Y63.544 E71.66638
G1 X83.800 Y86.396 E72.62298
G1 X83.453 Y86.256 F3000.000
G1 X77.776 Y85.832 F3000.000
G1 X83.175 Y80.432 E73.02193 F1800.000
G1 X83.175 Y74.508 E73.33142
G1 X71.852 Y85.832 E74.16806
G1 X66.825 Y84.935 E74.43484
G1 X83.175 Y68.584 E75.64292
G1 X81.668 Y64.168 E75.88671
G1 X66.825 Y79.011 E76.98338
G1 X66.825 Y73.087 E77.29287
G1 X75.744 Y64.168 E77.95185
G1 X69.820 Y64.168 E78.26134
G1 X66.825 Y67.163 E78.48264
G1 Z0.950 F3000.000
G1 X83.422 Y86.079 F3000.000
G1 X66.578 Y86.079 E79.36270 F1800.000
G1 X66.578 Y63.921 E80.52033
G1 X83.422 Y63.921 E81.40039
G1 X83.422 Y86.019 E82.55488
G1 X83.800 Y86.456 F3000.000
G1 X66.200 Y86.456 E83.29160 F900.000
G1 X66.200 Y63.544 E84.25071
G1 X83.800 Y63.544 E84.98743
G1 X83.800 Y86.396 E85.94403
G1 X83.453 Y86.256 F3000.000
G1 X69.820 Y85.832 F3000.000
G1 X66.825 Y82.837 E86.16532 F1800.000
G1 X66.825 Y76.913 E86.47482
G1 X75.744 Y85.832 E87.13380
G1 X81.668 Y85.832 E87.44329
G1 X66.825 Y70.989 E88.53996
G1 X66.825 Y65.065 E88.84945
G1 X83.175 Y81.416 E90.05752
G1 X83.175 Y75.492 E90.36701
G1 X71.852 Y64.168 E91.20364
G1 X77.776 Y64.168 E91.51313
G1 X83.175 Y69.568 E91.91209
M106 S234.6
G1 Z1.250 F3000.000
G1 X83.422 Y86.079 F3000.000
G1 X66.578 Y86.079 E92.79215 F1800.000
G1 X66.578 Y63.921 E93.94977
G1 X83.422 Y63.921 E94.82984
G1 X83.422 Y86.019 E95.98433
G1 X83.800 Y86.456 F3000.000
G1 X66.200 Y86.456 E96.72105 F900.000
G1 X66.200 Y63.544 E97.68016
G1 X83.800 Y63.544 E98.41688
G1 X83.800 Y86.396 E99.37348
G1 X83.453 Y86.256 F3000.000
G1 X77.776 Y85.832 F3000.000
G1 X83.175 Y80.432 E99.77243 F1800.000
G1 X83.175 Y74.508 E100.08192
G1 X71.852 Y85.832 E100.91855
G1 X66.825 Y84.935 E101.18534
G1 X83.175 Y68.584 E102.39341
G1 X81.668 Y64.168 E102.63721
G1 X66.825 Y79.011 E103.73388
G1 X66.825 Y73.087 E104.04337
G1 X75.744 Y64.168 E104.70235
G1 X69.820 Y64.168 E105.01184
G1 X66.825 Y67.163 E105.23314
M106 S232.05
G1 Z1.550 F3000.000
G1 X83.422 Y86.079 F3000.000
G1 X66.578 Y86.079 E106.11320 F1800.000
G1 X66.578 Y63.921 E107.27082
G1 X83.422 Y63.921 E108.15089
G1 X83.422 Y86.019 E109.30538
G1 X83.800 Y86.456 F3000.000
G1 X66.200 Y86.456 E110.04210 F900.000
G1 X66.200 Y63.544 E111.00121
G1 X83.800 Y63.544 E111.73793
G1 X83.800 Y86.396 E112.69453
G1 X83.453 Y86.256 F3000.000
G1 X69.820 Y85.832 F3000.000
G1 X66.825 Y82.837 E112.91582 F1800.000
G1 X66.825 Y76.913 E113.22531
G1 X75.744 Y85.832 E113.88430
G1 X81.668 Y85.832 E114.19379
G1 X66.825 Y70.989 E115.29045
G1 X66.825 Y65.065 E115.59994
G1 X83.175 Y81.416 E116.80802
G1 X83.175 Y75.492 E117.11751
G1 X71.852 Y64.168 E117.95414
G1 X77.776 Y64.168 E118.26363
G1 X83.175 Y69.568 E118.66258
M106 S234.6
G1 Z1.850 F3000.000
G1 X83.422 Y86.079 F3000.000
G1 X66.578 Y86.079 E119.54265 F1800.000
G1 X66.578 Y63.921 E120.70027
G1 X83.422 Y63.921 E121.58034
G1 X83.422 Y86.019 E122.73483
G1 X83.800 Y86.456 F3000.000
G1 X66.200 Y86.456 E123.47155 F900.000
G1 X66.200 Y63.544 E124.43066
G1 X83.800 Y63.544 E125.16738
G1 X83.800 Y86.396 E126.12397
G1 X83.453 Y86.256 F3000.000
G1 X77.776 Y85.832 F3000.000
G1 X83.175 Y80.432 E126.52292 F1800.000
G1 X83.175 Y74.508 E126.83242
G1 X71.852 Y85.832 E127.66905
G1 X66.825 Y84.935 E127.93584
G1 X83.175 Y68.584 E129.14391
G1 X81.668 Y64.168 E129.38771
G1 X66.825 Y79.011 E130.48437
G1 X66.825 Y73.087 E130.79386
G1 X75.744 Y64.168 E131.45285
G1 X69.820 Y64.168 E131.76234
G1 X66.825 Y67.163 E131.98363
M106 S102
G1 Z2.150 F3000.000
G1 E129.98363 F2400.00000
G92 E0
G1 X83.422 Y86.079 F3000.000
G1 E2.00000 F2400.00000
G1 X66.578 Y86.079 E2.88006 F1800.000
G1 X66.578 Y63.921 E4.03769
G1 X83.422 Y63.921 E4.91775
G1 X83.422 Y86.019 E6.07224
G1 X83.800 Y86.456 F3000.000
G1 X66.200 Y86.456 E6.80896 F900.000
G1 X66.200 Y63.544 E7.76807
G1 X83.800 Y63.544 E8.50479
G1 X83.800 Y86.396 E9.46139
G1 X83.453 Y86.256 F3000.000
G1 E7.46139 F2400.00000
G92 E0
G1 X81.843 Y72.163 F3000.000
G1 E2.00000 F2400.00000
G1 X80.033 Y70.353 E2.13388 F900.000
G1 X77.616 Y68.529 F3000.000
G1 X83.175 Y74.088 E2.54511 F900.000
G1 X83.175 Y74.681 E2.57614
G1 X76.454 Y67.960 E3.07335
G1 X75.571 Y67.670 E3.12199
G1 X83.175 Y75.275 E3.68455
G1 X83.175 Y75.868 E3.71558
G1 X74.839 Y67.531 E4.33226
G1 X74.202 Y67.487 E4.36567
G1 X83.175 Y76.461 E5.02949
G1 X83.175 Y77.054 E5.06052
G1 X73.632 Y67.511 E5.76646
G1 X73.117 Y67.588 E5.79374
G1 X83.175 Y77.647 E6.53783
G1 X83.175 Y78.240 E6.56886
G1 X72.641 Y67.706 E7.34813
G1 X72.191 Y67.849 E7.37282
G1 X83.175 Y78.833 E8.18536
G1 X83.175 Y79.426 E8.21639
G1 X71.768 Y68.019 E9.06025
G1 X71.372 Y68.216 E9.08339
G1 X83.175 Y80.019 E9.95652
G1 X83.175 Y80.613 E9.98755
G1 X71.002 Y68.439 E10.88811
G1 X69.339 Y67.370 F3000.000
G1 X83.175 Y81.206 E11.91164 F900.000
G1 X83.175 Y81.799 E11.94266
G1 X68.153 Y66.777 E13.05393
G1 X67.130 Y66.347 F3000.000
G1 X83.175 Y82.392 E14.24090 F900.000
G1 X83.175 Y82.985 E14.27192
G1 X66.825 Y66.634 E15.48148
G1 X66.825 Y67.228 E15.51250
G1 X83.175 Y83.578 E16.72205
G1 X83.175 Y84.171 E16.75308
G1 X66.825 Y67.821 E17.96263
G1 X66.825 Y68.414 E17.99366
G1 X83.175 Y84.764 E19.20321
G1 X83.175 Y85.357 E19.23424
G1 X66.825 Y69.007 E20.44379
G1 X66.825 Y69.600 E20.47482
G1 X83.056 Y85.832 E21.67557
G1 X82.463 Y85.832 E21.70660
G1 X66.825 Y70.193 E22.86348
G1 X66.825 Y70.786 E22.89451
G1 X81.870 Y85.832 E24.00751
G1 X81.277 Y85.832 E24.03854
G1 X66.825 Y71.379 E25.10767
G1 X66.825 Y71.972 E25.13869
G1 X80.684 Y85.832 E26.16395
G1 X80.091 Y85.832 E26.19497
G1 X66.825 Y72.566 E27.17635
G1 X66.825 Y73.159 E27.20738
G1 X79.498 Y85.832 E28.14488
G1 X78.905 Y85.832 E28.17590
G1 X66.825 Y73.752 E29.06953
G1 X66.825 Y74.345 E29.10055
G1 X78.312 Y85.832 E29.95030
G1 X77.718 Y85.832 E29.98133
G1 X66.825 Y74.938 E30.78720
G1 X66.825 Y75.531 E30.81823
G1 X77.125 Y85.832 E31.58022
G1 X76.532 Y85.832 E31.61125
G1 X66.825 Y76.124 E32.32937
G1 X66.825 Y76.717 E32.36039
G1 X75.939 Y85.832 E33.03464
G1 X75.346 Y85.832 E33.06566
G1 X66.825 Y77.310 E33.69603
G1 X66.825 Y77.904 E33.72706
G1 X74.753 Y85.832 E34.31355
G1 X74.160 Y85.832 E34.34458
G1 X66.825 Y78.497 E34.88720
G1 X66.825 Y79.090 E34.91822
G1 X73.567 Y85.832 E35.41696
G1 X72.974 Y85.832 E35.44799
G1 X66.825 Y79.683 E35.90285
G1 X66.825 Y80.276 E35.93388
G1 X72.380 Y85.832 E36.34487
G1 X71.787 Y85.832 E36.37589
G1 X66.825 Y80.869 E36.74301
G1 X66.825 Y81.462 E36.77403
G1 X71.194 Y85.832 E37.09727
G1 X70.601 Y85.832 E37.12829
G1 X66.825 Y82.055 E37.40766
G1 X66.825 Y82.648 E37.43868
G1 X70.008 Y85.832 E37.67417
G1 X69.415 Y85.832 E37.70519
G1 X66.825 Y83.242 E37.89680
G1 X66.825 Y83.835 E37.92783
G1 X68.822 Y85.832 E38.07556
G1 X68.229 Y85.832 E38.10658
G1 X66.825 Y84.428 E38.21044
G1 X66.825 Y85.021 E38.24147
G1 X67.636 Y85.832 E38.30145
G1 X67.042 Y85.832 E38.33247
G1 X66.825 Y85.614 E38.34858
G1 E36.34858 F2400.00000
G92 E0
G1 X66.825 Y65.065 F3000.000
G1 E2.00000 F2400.00000
G1 X68.277 Y66.517 E2.10729 F1800.000
G1 X71.852 Y64.168 E2.33078
G1 X75.010 Y67.327 E2.56413
G1 X77.776 Y64.168 E2.78346
G1 X83.175 Y69.568 E3.18241
M106 S188.7
G1 Z2.450 F3000.000
G1 E1.18241 F2400.00000
G92 E0
G1 X77.296 Y85.578 F3000.000
G1 E2.00000 F2400.00000
G1 X76.802 Y85.510 E2.02606 F900.000
G1 X75.888 Y85.294 E2.07514
G1 X75.804 Y84.355 E2.12437
G1 X75.972 Y84.368 E2.13321
G1 X77.173 Y84.603 E2.19714
G1 X77.289 Y85.518 E2.24535
G1 X77.732 Y86.019 F3000.000
G1 X76.736 Y85.881 E2.28745 F900.000
G1 X76.080 Y85.737 E2.31556
G1 X75.535 Y85.589 E2.33918
G1 X75.388 Y83.946 E2.40823
G1 X76.023 Y83.993 E2.43488
G1 X77.514 Y84.285 E2.49846
G1 X77.724 Y85.959 E2.56910
G1 X77.396 Y85.802 F3000.000
G1 X77.020 Y85.064 F3000.000
G1 X76.060 Y84.865 E2.67950 F1200.000
G1 E0.67950 F2400.00000
G92 E0
G1 X77.712 Y81.705 F3000.000
G1 E2.00000 F2400.00000
G1 X75.472 Y75.110 E2.36384 F900.000
G1 X75.097 Y73.938 E2.42817
G1 X74.948 Y73.347 E2.45998
G1 X74.889 Y72.984 E2.47919
G1 X74.869 Y72.679 E2.49516
G1 X74.885 Y72.439 E2.50776
G1 X74.942 Y72.227 E2.51919
G1 X75.069 Y72.221 E2.52587
G1 X75.218 Y72.248 E2.53378
G1 X75.404 Y72.314 E2.54406
G1 X75.820 Y72.544 E2.56892
G1 X76.111 Y72.752 E2.58760
G1 X76.594 Y73.145 E2.62010
G1 X77.632 Y74.084 E2.69326
G1 X78.607 Y75.090 E2.76642
G1 X79.282 Y75.849 E2.81953
G1 X79.981 Y76.691 E2.87667
G1 X81.486 Y78.600 E3.00368
G1 X82.222 Y79.439 E3.06196
G1 X82.737 Y80.114 E3.10634
G1 X82.742 Y81.761 E3.19237
G1 X77.772 Y81.705 E3.45208
G1 X77.440 Y82.078 F3000.000
G1 X75.114 Y75.229 E3.75488 F900.000
G1 X74.734 Y74.041 E3.80707
G1 X74.579 Y73.424 E3.83372
G1 X74.514 Y73.027 E3.85055
G1 X74.491 Y72.679 E3.86515
G1 X74.511 Y72.377 E3.87781
G1 X74.572 Y72.149 E3.88771
G1 X74.659 Y71.998 E3.89501
G1 X74.763 Y71.907 E3.90079
G1 X74.910 Y71.851 E3.90737
G1 X75.094 Y71.842 E3.91509
G1 X75.316 Y71.883 E3.92451
G1 X75.551 Y71.966 E3.93496
G1 X76.029 Y72.229 E3.95780
G1 X76.340 Y72.453 E3.97383
G1 X76.837 Y72.856 E4.00061
G1 X77.896 Y73.815 E4.06044
G1 X78.883 Y74.833 E4.11978
G1 X79.568 Y75.603 E4.16294
G1 X80.274 Y76.453 E4.20919
G1 X81.776 Y78.358 E4.31074
G1 X82.510 Y79.196 E4.35737
G1 X83.093 Y79.962 E4.39764
G1 X83.124 Y80.217 E4.40839
G1 X83.106 Y82.139 E4.48886
G1 X81.339 Y82.134 E4.56287
G1 X77.500 Y82.079 E4.72356
G1 X77.562 Y81.697 F3000.000
G1 X82.276 Y81.509 F3000.000
G1 X82.494 Y81.292 E4.74017 F1200.000
G1 X82.492 Y80.681 E4.77315
G1 X81.671 Y81.502 E4.83589
G1 X81.065 Y81.496 E4.86862
G1 X82.463 Y80.098 E4.97543
G1 X82.196 Y79.752 E4.99903
G1 X80.459 Y81.489 E5.13174
G1 X79.853 Y81.482 E5.16447
G1 X81.913 Y79.422 E5.32186
