; generated by Slic3r 1.2.9 on 2021-07-31 at 15:26:25

; external perimeters extrusion width = 0.40mm
; perimeters extrusion width = 0.48mm
; infill extrusion width = 0.48mm
; solid infill extrusion width = 0.48mm
; top infill extrusion width = 0.48mm

M107
M104 S185 ; set temperature
G28 ; home all axes
G1 Z5 F5000 ; lift nozzle

M109 S185 ; wait for temperature to be reached
G21 ; set units to millimeters
G90 ; use absolute coordinates
M82 ; use absolute distances for extrusion
G92 E0
G1 Z0.350 F7800.000
G1 E-2.00000 F2400.00000
G92 E0
G1 X53.798 Y50.867 F7800.000
G1 E2.00000 F2400.00000
G1 X56.225 Y48.977 E2.27967 F600.000
G1 X59.055 Y47.774 E2.55934
G1 X62.247 Y47.337 E2.85223
G1 X82.818 Y47.337 E4.72272
G1 X85.867 Y47.735 E5.00239
G1 X88.713 Y48.904 E5.28206 F600.000
G1 X91.162 Y50.763 E5.56173
G1 X93.052 Y53.190 E5.84140
G1 X94.487 Y57.012 E6.21261
G1 X99.369 Y82.920 E8.60986
G1 X99.491 Y83.719 E8.68341
G1 X99.591 Y84.760 E8.77852
G1 X99.624 Y85.569 E8.85206
G1 X99.618 Y86.396 E8.92732
G1 X99.570 Y87.233 E9.00353
G1 X99.511 Y87.822 E9.05738
G1 X99.392 Y88.652 E9.13359
G1 X99.232 Y89.474 E9.20979
G1 X98.965 Y90.525 E9.30837
G1 X98.712 Y91.324 E9.38460
G1 X98.419 Y92.110 E9.46080
G1 X98.088 Y92.880 E9.53702
G1 X97.719 Y93.632 E9.61321
G1 X97.313 Y94.365 E9.68944
G1 X96.871 Y95.077 E9.76563
G1 X96.393 Y95.766 E9.84188
G1 X95.883 Y96.430 E9.91805
G1 X95.502 Y96.884 E9.97191
G1 X94.936 Y97.503 E10.04811
G1 X94.160 Y98.260 E10.14670
G1 X93.528 Y98.810 E10.22292
G1 X92.869 Y99.327 E10.29911
G1 X92.185 Y99.812 E10.37532
G1 X91.477 Y100.261 E10.45153
G1 X90.764 Y100.666 E10.52610
G1 X90.221 Y100.945 E10.58159
G1 X89.460 Y101.295 E10.65778
G1 X88.682 Y101.607 E10.73401
G1 X87.890 Y101.880 E10.81018
G1 X87.085 Y102.113 E10.88642
G1 X86.028 Y102.354 E10.98501
G1 X85.201 Y102.494 E11.06124
G1 X84.369 Y102.592 E11.13741
G1 X83.778 Y102.636 E11.19127
G1 X82.941 Y102.663 E11.26747
G1 X81.857 Y102.636 E11.36606
G1 X81.022 Y102.567 E11.44226
G1 X80.434 Y102.494 E11.49610
G1 X79.366 Y102.305 E11.59467
G1 X59.398 Y97.382 E13.46476
G1 X56.533 Y96.264 E13.74443
G1 X54.051 Y94.447 E14.02410
G1 X52.119 Y92.054 E14.30377
G1 X50.867 Y89.245 E14.58344
G1 X50.372 Y85.854 E14.89502
G1 X50.372 Y59.212 E17.31761
G1 X50.770 Y56.162 E17.59728
G1 X51.939 Y53.317 E17.87695
G1 X53.762 Y50.915 E18.15116
G1 X54.309 Y51.270 F7800.000
G1 X54.414 Y51.137 E18.16651 F600.000
G1 X56.821 Y49.357 E18.43869
G1 X59.611 Y48.275 E18.71087
G1 X62.247 Y47.962 E18.95219
G1 X82.818 Y47.962 E20.82269
G1 X85.784 Y48.360 E21.09487
G1 X88.541 Y49.527 E21.36705 F600.000
G1 X90.892 Y51.379 E21.63922
G1 X92.672 Y53.785 E21.91140
G1 X93.873 Y57.128 E22.23432
G1 X98.753 Y83.025 E24.63055
G1 X98.870 Y83.794 E24.70136
G1 X98.968 Y84.806 E24.79374
G1 X99.000 Y85.584 E24.86455
G1 X98.993 Y86.381 E24.93702
G1 X98.947 Y87.186 E25.01041
G1 X98.891 Y87.745 E25.06142
G1 X98.777 Y88.543 E25.13479
G1 X98.623 Y89.335 E25.20816
G1 X98.363 Y90.356 E25.30391
G1 X98.119 Y91.125 E25.37731
G1 X97.838 Y91.881 E25.45067
G1 X97.519 Y92.623 E25.52406
G1 X97.163 Y93.347 E25.59742
G1 X96.772 Y94.053 E25.67081
G1 X96.346 Y94.738 E25.74418
G1 X95.886 Y95.402 E25.81759
G1 X95.394 Y96.041 E25.89092
G1 X95.033 Y96.471 E25.94195
G1 X94.489 Y97.066 E26.01531
G1 X93.735 Y97.802 E26.11108
G1 X93.126 Y98.331 E26.18446
G1 X92.491 Y98.829 E26.25782
G1 X91.833 Y99.295 E26.33119
G1 X91.151 Y99.728 E26.40457
G1 X90.465 Y100.117 E26.47631
G1 X89.950 Y100.382 E26.52896
G1 X89.218 Y100.719 E26.60232
G1 X88.468 Y101.020 E26.67572
G1 X87.706 Y101.283 E26.74906
G1 X86.930 Y101.507 E26.82246
G1 X85.904 Y101.742 E26.91822
G1 X85.108 Y101.876 E26.99162
G1 X84.307 Y101.970 E27.06496
G1 X83.747 Y102.012 E27.11598
G1 X82.941 Y102.038 E27.18935
G1 X81.888 Y102.012 E27.28510
G1 X81.084 Y101.945 E27.35847
G1 X80.527 Y101.876 E27.40948
G1 X79.490 Y101.693 E27.50522
G1 X59.548 Y96.775 E29.37287
G1 X56.764 Y95.677 E29.64505
G1 X54.367 Y93.883 E29.91723
G1 X52.529 Y91.521 E30.18941
G1 X51.378 Y88.758 E30.46159
G1 X50.997 Y85.854 E30.72789
G1 X50.997 Y59.212 E33.15048
G1 X51.395 Y56.245 E33.42266
G1 X52.562 Y53.488 E33.69484
G1 X54.272 Y51.317 E33.94621
G1 X54.811 Y51.681 F7800.000
G1 X55.028 Y51.416 E33.97737 F600.000
G1 X57.413 Y49.750 E34.24185
G1 X60.160 Y48.794 E34.50633
G1 X62.247 Y48.587 E34.69704
G1 X82.818 Y48.587 E36.56753
G1 X85.699 Y48.985 E36.83201
G1 X88.364 Y50.149 E37.09649 F600.000
G1 X90.614 Y51.993 E37.36096
G1 X92.279 Y54.378 E37.62544
G1 X93.259 Y57.243 E37.90082
G1 X98.137 Y83.129 E40.29603
G1 X98.250 Y83.869 E40.36411
G1 X98.345 Y84.851 E40.45376
G1 X98.375 Y85.599 E40.52183
G1 X98.369 Y86.365 E40.59152
G1 X98.342 Y86.894 E40.63970
G1 X98.271 Y87.667 E40.71025
G1 X98.162 Y88.435 E40.78079
G1 X98.014 Y89.196 E40.85132
G1 X97.762 Y90.187 E40.94424
G1 X97.527 Y90.926 E41.01480
G1 X97.256 Y91.653 E41.08533
G1 X96.949 Y92.366 E41.15589
G1 X96.607 Y93.062 E41.22642
G1 X96.230 Y93.740 E41.29698
G1 X95.821 Y94.399 E41.36751
G1 X95.379 Y95.037 E41.43808
G1 X94.905 Y95.651 E41.50859
G1 X94.565 Y96.057 E41.55679
G1 X94.042 Y96.630 E41.62731
G1 X93.310 Y97.344 E41.72024
G1 X92.724 Y97.852 E41.79079
G1 X92.114 Y98.331 E41.86132
G1 X91.481 Y98.779 E41.93186
G1 X90.826 Y99.195 E42.00241
G1 X90.167 Y99.569 E42.07131
G1 X89.679 Y99.819 E42.12113
G1 X88.975 Y100.144 E42.19166
G1 X88.255 Y100.433 E42.26223
G1 X87.522 Y100.686 E42.33273
G1 X86.776 Y100.902 E42.40330
G1 X85.780 Y101.129 E42.49622
G1 X85.015 Y101.258 E42.56679
G1 X84.244 Y101.348 E42.63730
G1 X83.716 Y101.388 E42.68548
G1 X82.941 Y101.413 E42.75602
G1 X81.919 Y101.388 E42.84894
G1 X81.146 Y101.324 E42.91947
G1 X80.620 Y101.258 E42.96765
G1 X79.614 Y101.080 E43.06056
G1 X59.698 Y96.169 E44.92578
G1 X56.996 Y95.091 E45.19026
G1 X54.688 Y93.321 E45.45473
G1 X52.947 Y90.992 E45.71921
G1 X51.902 Y88.277 E45.98369
G1 X51.622 Y85.854 E46.20548
G1 X51.622 Y59.212 E48.62807
G1 X52.020 Y56.330 E48.89255
G1 X53.185 Y53.665 E49.15703
G1 X54.773 Y51.727 E49.38489
G1 E47.38489 F2400.00000
G92 E0
G1 X85.789 Y87.670 F7800.000
G1 E2.00000 F2400.00000
G1 X85.370 Y88.223 E2.06305 F600.000
G1 X84.850 Y88.681 E2.12610
G1 X84.250 Y89.028 E2.18915
G1 X83.592 Y89.249 E2.25220
G1 X82.904 Y89.335 E2.31525
G1 X82.213 Y89.283 E2.37830
G1 X81.545 Y89.096 E2.44135
G1 X80.928 Y88.779 E2.50440
G1 X80.386 Y88.347 E2.56745
G1 X79.948 Y87.824 E2.62949
G1 X79.672 Y87.344 E2.67989
G1 X79.443 Y86.713 E2.74090
G1 X79.340 Y86.028 E2.80383
G1 X79.373 Y85.344 E2.86618
G1 X79.539 Y84.681 E2.92826
G1 X79.831 Y84.064 E2.99033
G1 X80.238 Y83.516 E3.05239
G1 X80.743 Y83.058 E3.11446
G1 X81.329 Y82.707 E3.17652
G1 X81.949 Y82.485 E3.23639
G1 X82.308 Y82.413 E3.26973
G1 X82.682 Y82.378 E3.30383 F600.000
G1 X83.329 Y82.410 E3.36277
G1 X83.991 Y82.576 E3.42478
G1 X84.608 Y82.868 E3.48684
G1 X85.156 Y83.274 E3.54891
G1 X85.614 Y83.780 E3.61097
G1 X85.965 Y84.366 E3.67304
G1 X86.183 Y84.974 E3.73182
G1 X86.247 Y85.259 E3.75838
G1 X86.294 Y85.704 E3.79907
G1 X86.261 Y86.373 E3.86000
G1 X86.090 Y87.045 E3.92303
G1 X85.815 Y87.616 E3.98062
G1 X85.253 Y87.342 F7800.000
G1 X84.910 Y87.795 E4.03230 F600.000
G1 X84.484 Y88.171 E4.08398
G1 X83.991 Y88.456 E4.13566
G1 X83.453 Y88.637 E4.18734
G1 X82.889 Y88.707 E4.23901
G1 X82.322 Y88.665 E4.29069
G1 X81.775 Y88.511 E4.34237
G1 X81.269 Y88.252 E4.39405
G1 X80.825 Y87.897 E4.44573
G1 X80.462 Y87.465 E4.49704
G1 X80.241 Y87.079 E4.53746
G1 X80.052 Y86.558 E4.58788
G1 X79.967 Y85.997 E4.63952
G1 X79.995 Y85.436 E4.69060
G1 X80.130 Y84.893 E4.74148
G1 X80.370 Y84.387 E4.79235
G1 X80.703 Y83.938 E4.84323
G1 X81.118 Y83.562 E4.89410
G1 X81.597 Y83.274 E4.94497
G1 X82.116 Y83.089 E4.99506
G1 X82.399 Y83.032 E5.02134
G1 X82.696 Y83.004 E5.04841 F600.000
G1 X83.237 Y83.031 E5.09764
G1 X83.779 Y83.167 E5.14849
G1 X84.285 Y83.406 E5.19937
G1 X84.734 Y83.740 E5.25024
G1 X85.110 Y84.154 E5.30111
G1 X85.398 Y84.634 E5.35198
G1 X85.582 Y85.149 E5.40168
G1 X85.629 Y85.361 E5.42148
G1 X85.668 Y85.722 E5.45445
G1 X85.640 Y86.280 E5.50526
G1 X85.499 Y86.830 E5.55693
G1 X85.279 Y87.288 E5.60315
G1 X85.432 Y87.700 F7800.000
G1 E3.60315 F2400.00000
G92 E0
G1 X82.746 Y81.744 F7800.000
G1 E2.00000 F2400.00000
G1 X82.217 Y81.794 E2.04824 F600.000
G1 X81.782 Y81.881 E2.08864
G1 X81.060 Y82.139 E2.15830
G1 X80.369 Y82.553 E2.23155
G1 X79.772 Y83.094 E2.30481
G1 X79.293 Y83.741 E2.37807
G1 X79.050 Y84.254 E2.42968
G1 X63.847 Y84.254 E3.81211
G1 X63.847 Y60.811 E5.94376
G1 X81.218 Y60.811 E7.52332
G1 X81.218 Y77.922 E9.07914
G1 X81.272 Y78.670 E9.14737
G1 X81.446 Y79.459 E9.22086
G1 X81.731 Y80.216 E9.29435
G1 X82.122 Y80.923 E9.36784
G1 X82.709 Y81.696 E9.45612
G1 X78.809 Y84.879 F7800.000
G1 X63.222 Y84.879 E10.87350 F600.000
G1 X63.222 Y60.187 E13.11880
G1 X81.843 Y60.187 E14.81200
G1 X81.843 Y77.899 E16.42259
G1 X81.892 Y78.580 E16.48466
G1 X82.046 Y79.281 E16.54993
G1 X82.300 Y79.953 E16.61521
G1 X82.647 Y80.581 E16.68048
G1 X83.081 Y81.152 E16.74576
G1 X83.593 Y81.656 E16.81103
G1 X84.163 Y82.073 E16.87524
G1 X84.922 Y82.500 E16.95446
G1 X85.235 Y82.718 E16.98910
G1 X85.516 Y82.957 E17.02266
G1 X85.911 Y83.385 E17.07564
G1 X86.240 Y83.864 E17.12851
G1 X86.412 Y84.196 E17.16252
G1 X86.612 Y84.727 E17.21404
G1 X86.737 Y85.296 E17.26707
G1 X86.773 Y85.663 E17.30060
G1 X86.772 Y86.039 E17.33475
G1 X86.697 Y86.638 E17.38969
G1 X86.534 Y87.220 E17.44459
G1 X86.385 Y87.572 E17.47938
G1 X86.202 Y87.908 E17.51416
G1 X85.842 Y88.408 E17.57017
G1 X85.582 Y88.689 E17.60500
G1 X85.138 Y89.063 E17.65782
G1 X84.808 Y89.277 E17.69356
G1 X84.264 Y89.539 E17.74846
G1 X83.687 Y89.717 E17.80336
G1 X83.310 Y89.783 E17.83814
G1 X82.928 Y89.812 E17.87293
G1 X82.313 Y89.781 E17.92894
G1 X81.949 Y89.717 E17.96261
G1 X81.360 Y89.535 E18.01862
G1 X81.011 Y89.378 E18.05341
G1 X80.669 Y89.180 E18.08930
G1 X80.359 Y88.957 E18.12408
G1 X79.908 Y88.539 E18.17998
G1 X79.660 Y88.241 E18.21523
G1 X79.342 Y87.747 E18.26867
G1 X79.099 Y87.212 E18.32211
G1 X78.984 Y86.842 E18.35736
G1 X78.877 Y86.236 E18.41325
G1 X78.812 Y84.939 E18.53134
G1 X78.215 Y85.504 F7800.000
G1 X62.597 Y85.504 E19.95149 F600.000
G1 X62.597 Y59.562 E22.31043
G1 X82.468 Y59.562 E24.11728
G1 X82.468 Y77.877 E25.78264
G1 X82.512 Y78.490 E25.83854
G1 X82.647 Y79.103 E25.89560
G1 X82.868 Y79.690 E25.95266
G1 X83.172 Y80.239 E26.00972
G1 X83.552 Y80.739 E26.06678
G1 X83.999 Y81.178 E26.12383
G1 X84.502 Y81.547 E26.18051
G1 X85.255 Y81.970 E26.25905
G1 X85.617 Y82.222 E26.29916
G1 X85.949 Y82.505 E26.33888
G1 X86.401 Y82.994 E26.39939
G1 X86.777 Y83.542 E26.45986
G1 X86.984 Y83.942 E26.50075
G1 X87.213 Y84.549 E26.55972
G1 X87.356 Y85.199 E26.62025
G1 X87.397 Y85.634 E26.65996
G1 X87.397 Y86.078 E26.70039
G1 X87.311 Y86.763 E26.76311
G1 X87.125 Y87.426 E26.82582
G1 X86.949 Y87.844 E26.86699
G1 X86.732 Y88.241 E26.90815
G1 X86.327 Y88.805 E26.97126
G1 X86.019 Y89.137 E27.01244
G1 X85.497 Y89.575 E27.07440
G1 X85.114 Y89.823 E27.11590
G1 X84.493 Y90.122 E27.17861
G1 X83.834 Y90.325 E27.24132
G1 X83.388 Y90.404 E27.28248
G1 X82.936 Y90.438 E27.32365
G1 X82.243 Y90.403 E27.38675
G1 X81.802 Y90.325 E27.42752
G1 X81.138 Y90.121 E27.49062
G1 X80.726 Y89.934 E27.53179
G1 X80.330 Y89.706 E27.57335
G1 X79.962 Y89.442 E27.61452
G1 X79.454 Y88.970 E27.67758
G1 X79.155 Y88.612 E27.71996
G1 X78.791 Y88.047 E27.78110
G1 X78.514 Y87.434 E27.84223
G1 X78.375 Y86.989 E27.88461
G1 X78.255 Y86.306 E27.94767
G1 X78.218 Y85.564 E28.01525
G1 X78.208 Y85.104 F7800.000
G1 X64.530 Y83.876 F7800.000
G1 X64.225 Y83.571 E28.05519 F600.000
G1 X64.225 Y82.671 E28.13849
G1 X65.430 Y83.876 E28.29624
G1 X66.330 Y83.876 E28.37954
G1 X64.225 Y81.771 E28.65509
G1 X64.225 Y80.871 E28.73839
G1 X67.230 Y83.876 E29.13174
G1 X68.129 Y83.876 E29.21504
G1 X64.225 Y79.972 E29.72619
G1 X64.225 Y79.072 E29.80949
G1 X69.029 Y83.876 E30.43845
G1 X69.929 Y83.876 E30.52175
G1 X64.225 Y78.172 E31.26851
G1 X64.225 Y77.272 E31.35181
G1 X70.829 Y83.876 E32.21638
G1 X71.728 Y83.876 E32.29967
G1 X64.225 Y76.373 E33.28204
G1 X64.225 Y75.473 E33.36534
G1 X72.628 Y83.876 E34.46551
G1 X73.528 Y83.876 E34.54881
G1 X64.225 Y74.573 E35.76678
G1 X64.225 Y73.673 E35.85008
G1 X74.428 Y83.876 E37.18585
G1 X75.327 Y83.876 E37.26915
G1 X64.225 Y72.774 E38.72273
G1 X64.225 Y71.874 E38.80603
G1 X76.227 Y83.876 E40.37741
G1 X77.127 Y83.876 E40.46071
G1 X64.225 Y70.974 E42.14989
G1 X64.225 Y70.074 E42.23319
G1 X78.027 Y83.876 E44.04018
G1 X78.880 Y83.830 E44.11934
G1 X64.225 Y69.175 E46.03811
G1 X64.225 Y68.275 E46.12141
G1 X79.230 Y83.279 E48.08591
G1 X79.633 Y82.783 E48.14512
G1 X64.225 Y67.375 E50.16246
G1 X64.225 Y66.475 E50.24576
G1 X80.105 Y82.355 E52.32489
G1 X80.650 Y82.001 E52.38510
G1 X64.225 Y65.576 E54.53561
G1 X64.225 Y64.676 E54.61891
G1 X81.256 Y81.706 E56.84866
G1 X81.914 Y81.465 E56.91359
G1 X64.225 Y63.776 E59.22955
G1 X64.225 Y62.876 E59.31285
G1 X81.087 Y79.738 E61.52051
G1 X80.880 Y78.631 E61.62479
G1 X64.225 Y61.977 E63.80530
G1 X64.338 Y61.190 E63.87887
G1 X80.839 Y77.691 E66.03926
G1 X80.839 Y76.791 E66.12256
G1 X65.238 Y61.190 E68.16515
G1 X66.138 Y61.190 E68.24845
G1 X80.839 Y75.891 E70.17324
G1 X80.839 Y74.992 E70.25654
G1 X67.038 Y61.190 E72.06353
G1 X67.937 Y61.190 E72.14683
G1 X80.839 Y74.092 E73.83602
G1 X80.839 Y73.192 E73.91932
G1 X68.837 Y61.190 E75.49070
G1 X69.737 Y61.190 E75.57400
G1 X80.839 Y72.292 E77.02758
G1 X80.839 Y71.393 E77.11088
G1 X70.637 Y61.190 E78.44666
G1 X71.537 Y61.190 E78.52996
G1 X80.839 Y70.493 E79.74793
G1 X80.839 Y69.593 E79.83123
G1 X72.436 Y61.190 E80.93140
G1 X73.336 Y61.190 E81.01470
G1 X80.839 Y68.693 E81.99707
G1 X80.839 Y67.794 E82.08037
G1 X74.236 Y61.190 E82.94494
G1 X75.136 Y61.190 E83.02824
G1 X80.839 Y66.894 E83.77500
G1 X80.839 Y65.994 E83.85830
G1 X76.035 Y61.190 E84.48726
G1 X76.935 Y61.190 E84.57056
G1 X80.839 Y65.094 E85.08172
G1 X80.839 Y64.194 E85.16502
G1 X77.835 Y61.190 E85.55837
G1 X78.735 Y61.190 E85.64167
G1 X80.839 Y63.295 E85.91723
G1 X80.839 Y62.395 E86.00053
G1 X79.634 Y61.190 E86.15828
G1 X80.534 Y61.190 E86.24158
G1 X80.839 Y61.495 E86.28152
G1 Z0.650 F7800.000
G1 X79.342 Y85.559 F7800.000
G1 X79.352 Y85.340 E86.29297 F1200.000
G1 X79.519 Y84.674 E86.32886
G1 X79.813 Y84.053 E86.36473
G1 X80.222 Y83.502 E86.40061
G1 X80.731 Y83.040 E86.43649
G1 X81.320 Y82.687 E86.47237
G1 X81.943 Y82.464 E86.50696
G1 X82.308 Y82.392 E86.52637
G1 X82.701 Y82.356 E86.54703 F1200.000
G1 X83.334 Y82.389 E86.58011
G1 X83.998 Y82.556 E86.61588
G1 X84.619 Y82.849 E86.65176
G1 X85.170 Y83.259 E86.68764
G1 X85.631 Y83.767 E86.72352
G1 X85.984 Y84.356 E86.75940
G1 X86.216 Y85.003 E86.79528
G1 X86.317 Y85.683 E86.83119
G1 X86.282 Y86.377 E86.86747
G1 X86.110 Y87.052 E86.90391
G1 X85.807 Y87.681 E86.94036
G1 X85.386 Y88.237 E86.97681
G1 X84.863 Y88.699 E87.01326
G1 X84.258 Y89.048 E87.04970
G1 X83.597 Y89.270 E87.08615
G1 X82.905 Y89.356 E87.12260
G1 X82.209 Y89.304 E87.15905
G1 X81.538 Y89.115 E87.19550
G1 X80.917 Y88.797 E87.23195
G1 X80.381 Y88.370 E87.26774
G1 X80.018 Y87.959 E87.29639
G1 X79.661 Y87.374 E87.33218
G1 X79.423 Y86.719 E87.36863
G1 X79.319 Y86.029 E87.40504
G1 X79.339 Y85.619 E87.42651
G1 X79.760 Y85.580 F7800.000
G1 X79.769 Y85.402 E87.43579 F1200.000
G1 X79.915 Y84.816 E87.46737
G1 X80.174 Y84.270 E87.49893
G1 X80.534 Y83.784 E87.53050
G1 X80.981 Y83.378 E87.56207
G1 X81.500 Y83.068 E87.59364
G1 X82.055 Y82.869 E87.62446
G1 X82.368 Y82.807 E87.64110
G1 X82.709 Y82.776 E87.65903 F1200.000
G1 X83.271 Y82.806 E87.68842
G1 X83.856 Y82.952 E87.71992
G1 X84.402 Y83.210 E87.75149
G1 X84.888 Y83.570 E87.78306
G1 X85.293 Y84.018 E87.81463
G1 X85.604 Y84.536 E87.84620
G1 X85.808 Y85.105 E87.87776
G1 X85.896 Y85.703 E87.90935
G1 X85.866 Y86.314 E87.94128
G1 X85.714 Y86.908 E87.97334
G1 X85.448 Y87.461 E88.00541
G1 X85.077 Y87.951 E88.03748
G1 X84.617 Y88.357 E88.06955
G1 X84.085 Y88.664 E88.10162
G1 X83.503 Y88.859 E88.13369
G1 X82.894 Y88.936 E88.16576
G1 X82.282 Y88.890 E88.19782
G1 X81.691 Y88.724 E88.22989
G1 X81.145 Y88.444 E88.26196
G1 X80.671 Y88.065 E88.29365
G1 X80.357 Y87.709 E88.31847
G1 X80.040 Y87.192 E88.35016
G1 X79.831 Y86.615 E88.38222
G1 X79.739 Y86.008 E88.41427
G1 X79.757 Y85.639 E88.43356
G1 X80.137 Y85.598 F7800.000
