; generated by Slic3r 1.2.9 on 2021-08-16 at 14:02:05

; external perimeters extrusion width = 0.50mm
; perimeters extrusion width = 0.72mm
; infill extrusion width = 0.72mm
; solid infill extrusion width = 0.72mm
; top infill extrusion width = 0.72mm

M107
M104 S200 ; set temperature
G28 ; home all axes
G1 Z5 F5000 ; lift nozzle

M109 S200 ; wait for temperature to be reached
G21 ; set units to millimeters
G90 ; use absolute coordinates
M82 ; use absolute distances for extrusion
G92 E0
G1 Z0.350 F7800.000
G1 E-2.00000 F2400.00000
G92 E0
G1 X73.815 Y73.815 F7800.000
G1 E2.00000 F2400.00000
G1 X84.815 Y62.815 E2.48133 F1800.000
G1 X86.693 Y61.499 E2.55230
G1 X89.500 Y60.875 E2.64125
G1 X93.500 Y60.875 E2.76502
G1 X95.759 Y61.272 E2.83598
G1 X97.747 Y62.415 E2.90694 F1800.000
G1 X99.226 Y64.168 E2.97791
G1 X100.019 Y66.320 E3.04887
G1 X100.125 Y67.500 E3.08552
G1 X100.125 Y89.500 E3.76623
G1 X99.728 Y91.759 E3.83719
G1 X98.585 Y93.747 E3.90815
G1 X96.832 Y95.226 E3.97912
G1 X94.828 Y95.991 E4.04549
G1 X72.828 Y100.491 E4.74029
G1 X71.500 Y100.625 E4.78158
G1 X69.500 Y100.625 E4.84346
G1 X67.241 Y100.228 E4.91442
G1 X65.253 Y99.085 E4.98538
G1 X63.774 Y97.332 E5.05635
G1 X62.981 Y95.180 E5.12731
G1 X62.875 Y94.000 E5.16396
G1 X62.875 Y87.500 E5.36508
G1 X63.272 Y85.241 E5.43604
G1 X64.815 Y82.815 E5.52500
G1 X73.762 Y73.869 E5.91650
G1 E3.91650 F2400.00000
G92 E0
G1 X70.764 Y90.793 F7800.000
G1 E2.00000 F2400.00000
G1 X70.475 Y90.725 E2.00918 F1800.000
G1 X70.475 Y88.475 E2.07879
G1 X71.923 Y88.475 E2.12359
G1 X70.797 Y90.726 E2.20146
G1 E0.20146 F2400.00000
G92 E0
G1 X90.234 Y87.900 F7800.000
G1 E2.00000 F2400.00000
G1 X90.689 Y87.182 E2.02629 F1800.000
G1 X90.945 Y86.566 E2.04695
G1 X91.065 Y86.029 E2.06397
G1 X91.100 Y85.559 E2.07855
G1 X91.100 Y69.100 E2.58782
G1 X91.900 Y69.100 E2.61258
G1 X91.900 Y87.900 E3.19429
G1 X90.309 Y87.900 E3.24351
G1 X88.674 Y88.223 F7800.000
G1 X88.905 Y88.128 E3.25124 F1800.000
G1 X89.370 Y87.817 E3.26857
G1 X89.613 Y87.596 E3.27872
G1 X89.892 Y87.274 E3.29190
G1 X90.132 Y86.893 E3.30583
G1 X90.347 Y86.376 E3.32315
G1 X90.445 Y85.937 E3.33708
G1 X90.475 Y85.536 E3.34952
G1 X90.475 Y68.475 E3.87741
G1 X92.525 Y68.475 E3.94085
G1 X92.525 Y88.525 E4.56123
G1 X88.734 Y88.525 E4.67853
G1 X88.689 Y88.297 E4.68573
G1 X72.284 Y89.150 F7800.000
G1 X71.150 Y91.417 E4.76417 F1800.000
G1 X71.150 Y93.650 E4.83325
G1 X69.850 Y93.650 E4.87347
G1 X69.850 Y87.850 E5.05293
G1 X87.615 Y87.848 E5.60262
G1 X87.849 Y87.825 E5.60989
G1 X88.187 Y87.749 E5.62059
G1 X88.609 Y87.574 E5.63472
G1 X88.985 Y87.323 E5.64872
G1 X89.165 Y87.159 E5.65625
G1 X89.388 Y86.900 E5.66682
G1 X89.576 Y86.605 E5.67766
G1 X89.749 Y86.187 E5.69165
G1 X89.826 Y85.845 E5.70249
G1 X89.850 Y85.513 E5.71279
G1 X89.850 Y67.850 E6.25931
G1 X93.150 Y67.850 E6.36141
G1 X93.150 Y89.150 E7.02046
G1 X72.359 Y89.150 E7.66377
G1 X71.807 Y88.998 F7800.000
G1 X72.259 Y88.500 F7800.000
G1 X87.631 Y88.499 E8.67216 F1800.000
G1 X88.397 Y88.435 E8.72262
G1 X91.238 Y87.588 F7800.000
G1 X91.414 Y86.698 E8.75067 F1800.000
G1 X91.480 Y86.098 E8.76935
G1 X91.500 Y85.570 E8.78570
G1 X91.500 Y69.412 E9.28565
G1 E7.28565 F2400.00000
G92 E0
G1 X70.500 Y91.052 F7800.000
G1 E2.00000 F2400.00000
G1 X70.500 Y93.338 E2.14997 F1800.000
G1 Z0.650 F7800.000
G1 E0.14997 F2400.00000
G92 E0
G1 X89.848 Y88.050 F7800.000
G1 E2.00000 F2400.00000
G1 X90.274 Y87.557 E2.01809 F3600.000
G1 X90.555 Y87.113 E2.03270
G1 X90.800 Y86.522 E2.05047
G1 X90.916 Y86.007 E2.06513
G1 X90.950 Y85.553 E2.07777
G1 X90.950 Y68.950 E2.53899
G1 X92.050 Y68.950 E2.56957
G1 X92.050 Y88.050 E3.10015
G1 X89.923 Y88.050 E3.15923
G1 X72.009 Y88.705 F7800.000
G1 X70.705 Y91.312 E3.24021 F3600.000
G1 X70.705 Y93.205 E3.29278
G1 X70.295 Y93.205 E3.30416
G1 X70.295 Y88.295 E3.44055
G1 X87.637 Y88.293 E3.92228
G1 X87.920 Y88.265 E3.93017
G1 X88.320 Y88.175 E3.94156
G1 X88.819 Y87.969 E3.95657
G1 X89.259 Y87.675 E3.97127
G1 X89.484 Y87.471 E3.97971
G1 X89.747 Y87.166 E3.99087
G1 X89.972 Y86.810 E4.00257
G1 X90.174 Y86.323 E4.01721
G1 X90.267 Y85.911 E4.02896
G1 X90.295 Y85.529 E4.03959
G1 X90.295 Y68.295 E4.51831
G1 X92.705 Y68.295 E4.58526
G1 X92.705 Y88.705 E5.15220
G1 X72.084 Y88.705 E5.72501
G1 X72.345 Y89.250 F7800.000
G1 X71.250 Y91.441 E5.77030 F1800.000
G1 X71.250 Y93.750 E5.81299
G1 X69.750 Y93.750 E5.84072
G1 X69.750 Y87.750 E5.95165
G1 X87.610 Y87.748 E6.28186
G1 X87.833 Y87.726 E6.28600
G1 X88.155 Y87.654 E6.29209
G1 X88.561 Y87.485 E6.30022
G1 X88.923 Y87.244 E6.30827
G1 X89.093 Y87.089 E6.31252
G1 X89.308 Y86.841 E6.31859
G1 X89.487 Y86.558 E6.32477
G1 X89.653 Y86.158 E6.33278
G1 X89.726 Y85.830 E6.33899
G1 X89.750 Y85.509 E6.34494
G1 X89.750 Y67.750 E6.67328
G1 X93.250 Y67.750 E6.73799
G1 X93.250 Y89.250 E7.13549
G1 X72.420 Y89.250 E7.52059
G1 X71.869 Y89.098 F7800.000
G1 X71.124 Y88.622 F7800.000
G1 X70.788 Y90.042 E7.60564 F1200.000
G1 E5.60564 F2400.00000
G92 E0
G1 X91.211 Y87.723 F7800.000
G1 E2.00000 F2400.00000
G1 X91.414 Y86.689 E2.06144 F1200.000
G1 X91.479 Y86.109 E2.09546
G1 X91.500 Y85.565 E2.12716
G1 X91.500 Y69.277 E3.07659
G1 Z0.950 F7800.000
G1 X89.848 Y88.050 F7800.000
G1 X90.274 Y87.557 E3.09468 F3600.000
G1 X90.555 Y87.113 E3.10928
G1 X90.800 Y86.523 E3.12703
G1 X90.916 Y86.007 E3.14171
G1 X90.950 Y85.553 E3.15436
G1 X90.950 Y68.950 E3.61557
G1 X92.050 Y68.950 E3.64615
G1 X92.050 Y88.050 E4.17673
G1 X89.923 Y88.050 E4.23582
G1 X72.009 Y88.705 F7800.000
G1 X70.705 Y91.312 E4.31679 F3600.000
G1 X70.705 Y93.205 E4.36937
G1 X70.295 Y93.205 E4.38075
G1 X70.295 Y88.295 E4.51714
G1 X87.637 Y88.293 E4.99887
G1 X87.920 Y88.265 E5.00676
G1 X88.319 Y88.175 E5.01811
G1 X88.819 Y87.969 E5.03315
G1 X89.259 Y87.675 E5.04786
G1 X89.484 Y87.471 E5.05629
G1 X89.747 Y87.166 E5.06745
G1 X89.972 Y86.810 E5.07915
G1 X90.174 Y86.324 E5.09377
G1 X90.267 Y85.911 E5.10555
G1 X90.295 Y85.529 E5.11617
G1 X90.295 Y68.295 E5.59490
G1 X92.705 Y68.295 E5.66184
G1 X92.705 Y88.705 E6.22879
G1 X72.084 Y88.705 E6.80160
G1 X72.345 Y89.250 F7800.000
G1 X71.250 Y91.441 E6.84689 F1800.000
G1 X71.250 Y93.750 E6.88958
G1 X69.750 Y93.750 E6.91731
G1 X69.750 Y87.750 E7.02824
G1 X87.610 Y87.748 E7.35845
G1 X87.833 Y87.726 E7.36259
G1 X88.154 Y87.654 E7.36866
G1 X88.561 Y87.485 E7.37681
G1 X88.923 Y87.244 E7.38486
G1 X89.093 Y87.089 E7.38911
G1 X89.308 Y86.841 E7.39518
G1 X89.487 Y86.558 E7.40135
G1 X89.652 Y86.159 E7.40935
G1 X89.726 Y85.830 E7.41558
G1 X89.750 Y85.509 E7.42153
G1 X89.750 Y67.750 E7.74987
G1 X93.250 Y67.750 E7.81458
G1 X93.250 Y89.250 E8.21207
G1 X72.420 Y89.250 E8.59718
G1 X71.869 Y89.098 F7800.000
G1 X71.124 Y88.622 F7800.000
G1 X70.788 Y90.042 E8.68222 F1200.000
G1 E6.68222 F2400.00000
G92 E0
G1 X91.211 Y87.723 F7800.000
G1 E2.00000 F2400.00000
G1 X91.414 Y86.690 E2.06135 F1200.000
G1 X91.479 Y86.109 E2.09544
G1 X91.500 Y85.565 E2.12716
G1 X91.500 Y69.277 E3.07659
M106 S249.9
G1 Z1.250 F7800.000
G1 X89.848 Y88.050 F7800.000
G1 X90.274 Y87.557 E3.09468 F3600.000
G1 X90.546 Y87.128 E3.10880
G1 X90.759 Y86.647 E3.12341
G1 X90.915 Y86.025 E3.14123
G1 X90.950 Y85.553 E3.15436
G1 X90.950 Y68.950 E3.61558
G1 X92.050 Y68.950 E3.64616
G1 X92.050 Y88.050 E4.17674
G1 X89.923 Y88.050 E4.23582
G1 X72.009 Y88.705 F7800.000
G1 X70.705 Y91.312 E4.31679 F3600.000
G1 X70.705 Y93.205 E4.36937
G1 X70.295 Y93.205 E4.38075
G1 X70.295 Y88.295 E4.51714
G1 X87.637 Y88.293 E4.99887
G1 X87.920 Y88.265 E5.00676
G1 X88.318 Y88.176 E5.01809
G1 X88.819 Y87.969 E5.03315
G1 X89.259 Y87.675 E5.04786
G1 X89.484 Y87.471 E5.05629
G1 X89.747 Y87.166 E5.06745
G1 X89.967 Y86.819 E5.07889
G1 X90.138 Y86.433 E5.09059
G1 X90.266 Y85.920 E5.10529
G1 X90.295 Y85.529 E5.11617
G1 X90.295 Y68.295 E5.59490
G1 X92.705 Y68.295 E5.66184
G1 X92.705 Y88.705 E6.22879
G1 X72.084 Y88.705 E6.80160
G1 X72.345 Y89.250 F7800.000
G1 X71.250 Y91.441 E6.84689 F1800.000
G1 X71.250 Y93.750 E6.88958
G1 X69.750 Y93.750 E6.91731
G1 X69.750 Y87.750 E7.02824
G1 X87.610 Y87.748 E7.35845
G1 X87.833 Y87.726 E7.36259
G1 X88.153 Y87.654 E7.36865
G1 X88.561 Y87.485 E7.37681
G1 X88.923 Y87.244 E7.38486
G1 X89.093 Y87.089 E7.38911
G1 X89.308 Y86.841 E7.39518
G1 X89.485 Y86.561 E7.40130
G1 X89.620 Y86.255 E7.40748
G1 X89.726 Y85.833 E7.41552
G1 X89.750 Y85.509 E7.42153
G1 X89.750 Y67.750 E7.74987
G1 X93.250 Y67.750 E7.81458
G1 X93.250 Y89.250 E8.21207
G1 X72.420 Y89.250 E8.59718
G1 X71.869 Y89.098 F7800.000
G1 X71.124 Y88.622 F7800.000
G1 X70.788 Y90.042 E8.68222 F1200.000
G1 E6.68222 F2400.00000
G92 E0
G1 X91.206 Y87.723 F7800.000
G1 E2.00000 F2400.00000
G1 X91.391 Y86.835 E2.05291 F1200.000
G1 X91.477 Y86.136 E2.09391
G1 X91.500 Y85.565 E2.12722
G1 X91.500 Y69.277 E3.07665
G1 Z1.550 F7800.000
G1 X89.848 Y88.050 F7800.000
G1 X90.274 Y87.557 E3.09475 F3600.000
G1 X90.555 Y87.113 E3.10934
G1 X90.799 Y86.525 E3.12702
G1 X90.916 Y86.008 E3.14177
G1 X90.950 Y85.553 E3.15442
G1 X90.950 Y68.950 E3.61564
G1 X92.050 Y68.950 E3.64622
G1 X92.050 Y88.050 E4.17680
G1 X89.923 Y88.050 E4.23588
G1 X72.009 Y88.705 F7800.000
G1 X70.705 Y91.312 E4.31686 F3600.000
G1 X70.705 Y93.205 E4.36943
G1 X70.295 Y93.205 E4.38082
G1 X70.295 Y88.295 E4.51721
G1 X87.637 Y88.293 E4.99893
G1 X87.920 Y88.265 E5.00682
G1 X88.317 Y88.176 E5.01812
G1 X88.819 Y87.969 E5.03321
G1 X89.259 Y87.675 E5.04792
G1 X89.484 Y87.471 E5.05636
G1 X89.747 Y87.166 E5.06752
G1 X89.972 Y86.811 E5.07921
G1 X90.173 Y86.326 E5.09378
G1 X90.267 Y85.911 E5.10561
G1 X90.295 Y85.529 E5.11624
G1 X90.295 Y68.295 E5.59497
G1 X92.705 Y68.295 E5.66191
G1 X92.705 Y88.705 E6.22885
G1 X72.084 Y88.705 E6.80166
G1 X72.345 Y89.250 F7800.000
G1 X71.250 Y91.441 E6.84695 F1800.000
G1 X71.250 Y93.750 E6.88964
G1 X69.750 Y93.750 E6.91737
G1 X69.750 Y87.750 E7.02830
G1 X87.610 Y87.748 E7.35851
G1 X87.833 Y87.726 E7.36265
G1 X88.152 Y87.654 E7.36869
G1 X88.561 Y87.485 E7.37687
G1 X88.923 Y87.244 E7.38492
G1 X89.093 Y87.089 E7.38917
G1 X89.308 Y86.841 E7.39524
G1 X89.487 Y86.558 E7.40142
G1 X89.652 Y86.161 E7.40938
G1 X89.726 Y85.830 E7.41564
G1 X89.750 Y85.509 E7.42159
G1 X89.750 Y67.750 E7.74993
G1 X93.250 Y67.750 E7.81464
G1 X93.250 Y89.250 E8.21214
G1 X72.420 Y89.250 E8.59724
G1 X71.869 Y89.098 F7800.000
G1 X71.124 Y88.622 F7800.000
G1 X70.788 Y90.042 E8.68229 F1200.000
G1 E6.68229 F2400.00000
G92 E0
G1 X91.211 Y87.723 F7800.000
G1 E2.00000 F2400.00000
G1 X91.414 Y86.693 E2.06119 F1200.000
G1 X91.479 Y86.110 E2.09540
G1 X91.500 Y85.565 E2.12716
G1 X91.500 Y69.277 E3.07659
G1 Z1.850 F7800.000
G1 X89.848 Y88.050 F7800.000
G1 X90.274 Y87.557 E3.09468 F3600.000
G1 X90.555 Y87.113 E3.10929
G1 X90.801 Y86.520 E3.12712
G1 X90.916 Y86.007 E3.14173
G1 X90.950 Y85.553 E3.15436
G1 X90.950 Y68.950 E3.61558
G1 X92.050 Y68.950 E3.64616
G1 X92.050 Y88.050 E4.17674
G1 X89.923 Y88.050 E4.23582
G1 X72.009 Y88.705 F7800.000
G1 X70.705 Y91.312 E4.31680 F3600.000
G1 X70.705 Y93.205 E4.36937
G1 X70.295 Y93.205 E4.38075
G1 X70.295 Y88.295 E4.51714
G1 X87.637 Y88.293 E4.99887
G1 X87.920 Y88.265 E5.00676
G1 X88.322 Y88.175 E5.01820
G1 X88.819 Y87.968 E5.03316
G1 X89.259 Y87.675 E5.04786
G1 X89.484 Y87.471 E5.05630
G1 X89.747 Y87.166 E5.06746
G1 X89.972 Y86.810 E5.07916
G1 X90.175 Y86.322 E5.09386
G1 X90.267 Y85.910 E5.10556
G1 X90.295 Y85.529 E5.11618
G1 X90.295 Y68.295 E5.59490
G1 X92.705 Y68.295 E5.66185
G1 X92.705 Y88.705 E6.22879
G1 X72.084 Y88.705 E6.80160
G1 X72.345 Y89.250 F7800.000
G1 X71.250 Y91.441 E6.84689 F1800.000
G1 X71.250 Y93.750 E6.88958
G1 X69.750 Y93.750 E6.91731
G1 X69.750 Y87.750 E7.02824
G1 X87.610 Y87.748 E7.35845
G1 X87.833 Y87.726 E7.36259
G1 X88.156 Y87.653 E7.36871
G1 X88.561 Y87.485 E7.37681
G1 X88.923 Y87.244 E7.38486
G1 X89.093 Y87.089 E7.38911
G1 X89.308 Y86.841 E7.39518
G1 X89.487 Y86.558 E7.40136
G1 X89.653 Y86.156 E7.40940
G1 X89.726 Y85.830 E7.41558
G1 X89.750 Y85.509 E7.42153
G1 X89.750 Y67.750 E7.74987
G1 X93.250 Y67.750 E7.81458
G1 X93.250 Y89.250 E8.21208
G1 X72.420 Y89.250 E8.59718
G1 X71.869 Y89.098 F7800.000
G1 X71.124 Y88.622 F7800.000
G1 X70.788 Y90.042 E8.68223 F1200.000
G1 E6.68223 F2400.00000
G92 E0
G1 X91.211 Y87.723 F7800.000
G1 E2.00000 F2400.00000
G1 X91.415 Y86.687 E2.06157 F1200.000
G1 X91.479 Y86.108 E2.09549
G1 X91.500 Y85.565 E2.12716
G1 X91.500 Y69.277 E3.07659
G1 Z2.150 F7800.000
G1 X89.848 Y88.050 F7800.000
G1 X90.274 Y87.557 E3.09468 F3600.000
G1 X90.555 Y87.114 E3.10927
G1 X90.798 Y86.528 E3.12689
G1 X90.916 Y86.008 E3.14169
G1 X90.950 Y85.553 E3.15436
G1 X90.950 Y68.950 E3.61557
G1 X92.050 Y68.950 E3.64615
G1 X92.050 Y88.050 E4.17673
G1 X89.923 Y88.050 E4.23582
G1 X72.009 Y88.705 F7800.000
G1 X70.705 Y91.312 E4.31679 F3600.000
G1 X70.705 Y93.205 E4.36937
G1 X70.295 Y93.205 E4.38075
G1 X70.295 Y88.295 E4.51714
G1 X87.637 Y88.293 E4.99887
G1 X87.920 Y88.265 E5.00676
G1 X88.322 Y88.175 E5.01819
G1 X88.819 Y87.968 E5.03316
G1 X89.259 Y87.675 E5.04786
G1 X89.484 Y87.471 E5.05629
G1 X89.747 Y87.166 E5.06745
G1 X89.972 Y86.811 E5.07915
G1 X90.172 Y86.328 E5.09365
G1 X90.267 Y85.911 E5.10554
G1 X90.295 Y85.529 E5.11617
G1 X90.295 Y68.295 E5.59490
G1 X92.705 Y68.295 E5.66184
G1 X92.705 Y88.705 E6.22878
G1 X72.084 Y88.705 E6.80160
G1 X72.345 Y89.250 F7800.000
G1 X71.250 Y91.441 E6.84689 F1800.000
G1 X71.250 Y93.750 E6.88958
G1 X69.750 Y93.750 E6.91731
G1 X69.750 Y87.750 E7.02824
G1 X87.610 Y87.748 E7.35845
G1 X87.833 Y87.726 E7.36259
G1 X88.156 Y87.653 E7.36871
G1 X88.561 Y87.485 E7.37681
G1 X88.923 Y87.244 E7.38486
G1 X89.093 Y87.089 E7.38911
G1 X89.308 Y86.841 E7.39518
G1 X89.486 Y86.558 E7.40135
G1 X89.651 Y86.162 E7.40928
G1 X89.726 Y85.830 E7.41557
G1 X89.750 Y85.509 E7.42153
G1 X89.750 Y67.750 E7.74987
G1 X93.250 Y67.750 E7.81458
G1 X93.250 Y89.250 E8.21207
G1 X72.420 Y89.250 E8.59718
G1 X71.869 Y89.098 F7800.000
G1 X71.124 Y88.622 F7800.000
G1 X70.788 Y90.042 E8.68222 F1200.000
G1 E6.68222 F2400.00000
G92 E0
G1 X91.211 Y87.723 F7800.000
G1 E2.00000 F2400.00000
G1 X91.413 Y86.696 E2.06103 F1200.000
G1 X91.479 Y86.111 E2.09536
G1 X91.500 Y85.565 E2.12716
G1 X91.500 Y69.277 E3.07659
G1 Z2.450 F7800.000
G1 X89.848 Y88.050 F7800.000
G1 X90.274 Y87.557 E3.09468 F3600.000
G1 X90.555 Y87.114 E3.10927
G1 X90.798 Y86.529 E3.12686
G1 X90.916 Y86.008 E3.14169
G1 X90.950 Y85.553 E3.15436
G1 X90.950 Y68.950 E3.61558
G1 X92.050 Y68.950 E3.64616
G1 X92.050 Y88.050 E4.17674
G1 X89.923 Y88.050 E4.23582
G1 X72.009 Y88.705 F7800.000
G1 X70.705 Y91.312 E4.31680 F3600.000
G1 X70.705 Y93.205 E4.36937
G1 X70.295 Y93.205 E4.38075
G1 X70.295 Y88.295 E4.51714
G1 X87.637 Y88.293 E4.99887
G1 X87.920 Y88.265 E5.00675
G1 X88.314 Y88.177 E5.01797
G1 X88.819 Y87.969 E5.03314
G1 X89.259 Y87.675 E5.04786
G1 X89.484 Y87.471 E5.05630
G1 X89.747 Y87.166 E5.06746
G1 X89.972 Y86.811 E5.07915
G1 X90.172 Y86.329 E5.09362
G1 X90.267 Y85.911 E5.10553
G1 X90.295 Y85.529 E5.11618
G1 X90.295 Y68.295 E5.59490
G1 X92.705 Y68.295 E5.66184
G1 X92.705 Y88.705 E6.22879
G1 X72.084 Y88.705 E6.80160
G1 X72.345 Y89.250 F7800.000
G1 X71.250 Y91.441 E6.84689 F1800.000
G1 X71.250 Y93.750 E6.88958
G1 X69.750 Y93.750 E6.91731
G1 X69.750 Y87.750 E7.02824
G1 X87.610 Y87.748 E7.35845
G1 X87.833 Y87.726 E7.36259
G1 X88.149 Y87.655 E7.36858
G1 X88.561 Y87.486 E7.37681
G1 X88.923 Y87.244 E7.38486
G1 X89.093 Y87.089 E7.38911
G1 X89.308 Y86.841 E7.39518
G1 X89.486 Y86.558 E7.40135
G1 X89.651 Y86.163 E7.40927
G1 X89.726 Y85.831 E7.41557
G1 X89.750 Y85.509 E7.42153
G1 X89.750 Y67.750 E7.74987
G1 X93.250 Y67.750 E7.81458
G1 X93.250 Y89.250 E8.21207
G1 X72.420 Y89.250 E8.59718
G1 X71.869 Y89.098 F7800.000
G1 X71.124 Y88.622 F7800.000
G1 X70.788 Y90.042 E8.68222 F1200.000
G1 E6.68222 F2400.00000
G92 E0
G1 X91.211 Y87.723 F7800.000
G1 E2.00000 F2400.00000
G1 X91.413 Y86.697 E2.06095 F1200.000
G1 X91.479 Y86.111 E2.09534
G1 X91.500 Y85.565 E2.12716
G1 X91.500 Y69.277 E3.07659
G1 Z2.750 F7800.000
G1 X89.831 Y88.050 F7800.000
G1 X90.276 Y87.559 E3.09501 F3600.000
G1 X90.625 Y86.978 E3.11383
G1 X90.853 Y86.340 E3.13266
G1 X90.947 Y85.705 E3.15048
G1 X90.949 Y68.950 E3.61591
G1 X92.050 Y68.950 E3.64650
G1 X92.050 Y88.050 E4.17708
G1 X89.906 Y88.050 E4.23665
G1 X72.009 Y88.705 F7800.000
G1 X70.705 Y91.312 E4.31762 F3600.000
G1 X70.705 Y93.205 E4.37020
