; generated by Slic3r 1.2.9 on 2021-07-31 at 15:50:51

; external perimeters extrusion width = 0.40mm
; perimeters extrusion width = 0.48mm
; infill extrusion width = 0.48mm
; solid infill extrusion width = 0.48mm
; top infill extrusion width = 0.48mm

M107
M104 S185 ; set temperature
G28 ; home all axes
G1 Z5 F5000 ; lift nozzle

M109 S185 ; wait for temperature to be reached
G21 ; set units to millimeters
G90 ; use absolute coordinates
M82 ; use absolute distances for extrusion
G92 E0
G1 Z0.350 F7800.000
G1 E-2.00000 F2400.00000
G92 E0
G1 X50.610 Y46.920 F7800.000
G1 E2.00000 F2400.00000
G1 X53.037 Y45.030 E2.27967 F600.000
G1 X55.867 Y43.827 E2.55934
G1 X59.058 Y43.390 E2.85223
G1 X84.772 Y43.390 E5.19035
G1 X87.822 Y43.788 E5.47002
G1 X90.667 Y44.957 E5.74969 F600.000
G1 X93.117 Y46.816 E6.02935
G1 X95.007 Y49.243 E6.30902
G1 X96.441 Y53.065 E6.68024
G1 X102.534 Y85.397 E9.67193
G1 X102.666 Y86.255 E9.75090
G1 X102.757 Y87.119 E9.82984
G1 X102.806 Y87.985 E9.90876
G1 X102.812 Y88.864 E9.98864
G1 X102.775 Y89.763 E10.07046
G1 X102.693 Y90.659 E10.15225
G1 X102.513 Y91.853 E10.26206
G1 X102.328 Y92.733 E10.34386
G1 X102.098 Y93.602 E10.42562
G1 X101.826 Y94.460 E10.50745
G1 X101.511 Y95.302 E10.58923
G1 X101.273 Y95.865 E10.64472
G1 X100.898 Y96.662 E10.72486
G1 X100.474 Y97.456 E10.80668
G1 X100.011 Y98.227 E10.88848
G1 X99.331 Y99.226 E10.99838
G1 X98.782 Y99.937 E11.08004
G1 X98.198 Y100.622 E11.16187
G1 X97.580 Y101.276 E11.24367
G1 X96.931 Y101.898 E11.32546
G1 X96.252 Y102.488 E11.40727
G1 X95.775 Y102.867 E11.46269
G1 X95.063 Y103.388 E11.54291
G1 X94.311 Y103.883 E11.62472
G1 X93.536 Y104.339 E11.70652
G1 X92.739 Y104.757 E11.78832
G1 X91.923 Y105.133 E11.87002
G1 X91.087 Y105.469 E11.95193
G1 X90.237 Y105.763 E12.03373
G1 X89.374 Y106.014 E12.11550
G1 X88.196 Y106.283 E12.22530
G1 X87.309 Y106.431 E12.30713
G1 X86.415 Y106.536 E12.38891
G1 X85.808 Y106.581 E12.44429
G1 X84.926 Y106.610 E12.52456
G1 X83.719 Y106.580 E12.63432
G1 X83.129 Y106.536 E12.68816
G1 X82.235 Y106.431 E12.76996
G1 X81.046 Y106.222 E12.87974
G1 X56.210 Y100.096 E15.20578
G1 X53.345 Y98.977 E15.48545
G1 X50.863 Y97.161 E15.76512
G1 X48.931 Y94.768 E16.04479
G1 X47.678 Y91.959 E16.32446
G1 X47.184 Y88.568 E16.63604
G1 X47.184 Y55.265 E19.66428
G1 X47.582 Y52.215 E19.94395
G1 X48.750 Y49.370 E20.22362
G1 X50.574 Y46.968 E20.49783
G1 X51.121 Y47.322 F7800.000
G1 X51.226 Y47.190 E20.51318 F600.000
G1 X53.632 Y45.410 E20.78536
G1 X56.423 Y44.328 E21.05754
G1 X59.058 Y44.015 E21.29886
G1 X84.772 Y44.015 E23.63698
G1 X87.739 Y44.413 E23.90916
G1 X90.495 Y45.580 E24.18134 F600.000
G1 X92.847 Y47.432 E24.45352
G1 X94.627 Y49.838 E24.72570
G1 X95.827 Y53.181 E25.04861
G1 X101.918 Y85.502 E28.03929
G1 X102.046 Y86.330 E28.11553
G1 X102.133 Y87.164 E28.19173
G1 X102.181 Y88.000 E28.26792
G1 X102.188 Y88.848 E28.34502
G1 X102.152 Y89.716 E28.42400
G1 X102.073 Y90.581 E28.50296
G1 X101.898 Y91.744 E28.60994
G1 X101.718 Y92.594 E28.68890
G1 X101.497 Y93.433 E28.76783
G1 X101.233 Y94.261 E28.84682
G1 X100.929 Y95.074 E28.92578
G1 X100.585 Y95.872 E29.00476
G1 X100.201 Y96.651 E29.08372
G1 X99.933 Y97.143 E29.13473
G1 X99.487 Y97.888 E29.21369
G1 X98.823 Y98.861 E29.32075
G1 X98.294 Y99.547 E29.39959
G1 X97.729 Y100.208 E29.47859
G1 X97.133 Y100.839 E29.55755
G1 X96.506 Y101.440 E29.63651
G1 X95.850 Y102.009 E29.71548
G1 X95.397 Y102.369 E29.76807
G1 X94.711 Y102.872 E29.84546
G1 X93.985 Y103.350 E29.92443
G1 X93.237 Y103.791 E30.00341
G1 X92.468 Y104.193 E30.08237
G1 X91.680 Y104.557 E30.16124
G1 X90.874 Y104.882 E30.24031
G1 X90.053 Y105.166 E30.31928
G1 X89.219 Y105.408 E30.39822
G1 X88.072 Y105.670 E30.50519
G1 X87.216 Y105.814 E30.58418
G1 X86.353 Y105.914 E30.66312
G1 X85.777 Y105.957 E30.71568
G1 X84.926 Y105.985 E30.79311
G1 X83.750 Y105.956 E30.90004
G1 X83.191 Y105.914 E30.95105
G1 X82.328 Y105.814 E31.03001
G1 X81.170 Y105.609 E31.13695
G1 X56.360 Y99.489 E33.46057
G1 X53.575 Y98.391 E33.73275
G1 X51.179 Y96.597 E34.00493
G1 X49.340 Y94.235 E34.27710
G1 X48.190 Y91.472 E34.54928
G1 X47.809 Y88.568 E34.81559
G1 X47.809 Y55.265 E37.84382
G1 X48.207 Y52.298 E38.11600
G1 X49.373 Y49.541 E38.38818
G1 X51.084 Y47.370 E38.63955
G1 X51.623 Y47.734 F7800.000
G1 X51.840 Y47.468 E38.67071 F600.000
G1 X54.225 Y45.803 E38.93519
G1 X56.971 Y44.847 E39.19967
G1 X59.058 Y44.640 E39.39038
G1 X84.772 Y44.640 E41.72850
G1 X87.653 Y45.038 E41.99297
G1 X90.319 Y46.202 E42.25745 F600.000
G1 X92.568 Y48.046 E42.52193
G1 X94.234 Y50.431 E42.78641
G1 X95.213 Y53.296 E43.06179
G1 X101.302 Y85.606 E46.05144
G1 X101.425 Y86.405 E46.12495
G1 X101.510 Y87.209 E46.19842
G1 X101.556 Y88.015 E46.27187
G1 X101.563 Y88.833 E46.34619
G1 X101.529 Y89.669 E46.42234
G1 X101.453 Y90.503 E46.49846
G1 X101.283 Y91.636 E46.60260
G1 X101.109 Y92.455 E46.67874
G1 X100.895 Y93.264 E46.75484
G1 X100.641 Y94.062 E46.83099
G1 X100.347 Y94.846 E46.90711
G1 X100.015 Y95.615 E46.98326
G1 X99.645 Y96.366 E47.05939
G1 X99.392 Y96.831 E47.10756
G1 X98.962 Y97.549 E47.18370
G1 X98.316 Y98.496 E47.28791
G1 X97.805 Y99.158 E47.36393
G1 X97.261 Y99.795 E47.44009
G1 X96.686 Y100.403 E47.51622
G1 X96.081 Y100.982 E47.59235
G1 X95.448 Y101.530 E47.66849
G1 X95.020 Y101.871 E47.71825
G1 X94.359 Y102.356 E47.79280
G1 X93.659 Y102.816 E47.86894
G1 X92.938 Y103.242 E47.94508
G1 X92.197 Y103.630 E48.02121
G1 X91.438 Y103.981 E48.09725
G1 X90.660 Y104.295 E48.17349
G1 X89.869 Y104.569 E48.24962
G1 X89.065 Y104.803 E48.32573
G1 X87.949 Y105.058 E48.42986
G1 X87.123 Y105.196 E48.50602
G1 X86.291 Y105.292 E48.58213
G1 X85.746 Y105.333 E48.63186
G1 X84.926 Y105.360 E48.70645
G1 X83.781 Y105.332 E48.81055
G1 X83.253 Y105.292 E48.85872
G1 X82.421 Y105.196 E48.93485
G1 X81.294 Y104.997 E49.03896
G1 X56.510 Y98.882 E51.36015
G1 X53.808 Y97.805 E51.62462
G1 X51.500 Y96.035 E51.88910
G1 X49.758 Y93.705 E52.15358
G1 X48.714 Y90.991 E52.41806
G1 X48.434 Y88.568 E52.63985
G1 X48.434 Y55.265 E55.66809
G1 X48.832 Y52.383 E55.93257
G1 X49.996 Y49.718 E56.19704
G1 X51.585 Y47.780 E56.42490
G1 E54.42490 F2400.00000
G92 E0
G1 X88.274 Y90.708 F7800.000
G1 E2.00000 F2400.00000
G1 X88.043 Y91.046 E2.03720 F600.000
G1 X87.780 Y91.359 E2.07440
G1 X87.488 Y91.645 E2.11160
G1 X87.168 Y91.900 E2.14881
G1 X86.824 Y92.122 E2.18601
G1 X86.460 Y92.309 E2.22321
G1 X86.079 Y92.458 E2.26041
G1 X85.685 Y92.569 E2.29761
G1 X85.282 Y92.640 E2.33482
G1 X84.874 Y92.670 E2.37202
G1 X84.465 Y92.660 E2.40922
G1 X84.059 Y92.609 E2.44642
G1 X83.660 Y92.518 E2.48362
G1 X83.273 Y92.388 E2.52082
G1 X82.900 Y92.220 E2.55803
G1 X82.545 Y92.015 E2.59523
G1 X82.213 Y91.776 E2.63243
G1 X81.906 Y91.506 E2.66963
G1 X81.628 Y91.206 E2.70683
G1 X81.381 Y90.880 E2.74403
G1 X81.168 Y90.530 E2.78124
G1 X80.990 Y90.162 E2.81844
G1 X80.850 Y89.777 E2.85564
G1 X80.746 Y89.369 E2.89395
G1 X80.673 Y88.785 E2.94751
G1 X80.673 Y88.367 E2.98553
G1 X80.713 Y87.966 E3.02216
G1 X80.791 Y87.571 E3.05878
G1 X80.908 Y87.185 E3.09541
G1 X81.062 Y86.813 E3.13203
G1 X81.252 Y86.458 E3.16865
G1 X81.476 Y86.123 E3.20527
G1 X81.731 Y85.812 E3.24189
G1 X82.016 Y85.527 E3.27851
G1 X82.327 Y85.272 E3.31513
G1 X82.662 Y85.048 E3.35175
G1 X83.017 Y84.858 E3.38837
G1 X83.389 Y84.704 E3.42499
G1 X83.775 Y84.587 E3.46161
G1 X84.171 Y84.508 E3.49832
G1 X84.581 Y84.469 E3.53579 F600.000
G1 X84.974 Y84.469 E3.57150
G1 X85.374 Y84.508 E3.60809
G1 X85.769 Y84.587 E3.64471
G1 X86.155 Y84.704 E3.68133
G1 X86.527 Y84.858 E3.71795
G1 X86.882 Y85.048 E3.75457
G1 X87.217 Y85.272 E3.79119
G1 X87.528 Y85.527 E3.82781
G1 X87.813 Y85.812 E3.86444
G1 X88.068 Y86.123 E3.90106
G1 X88.292 Y86.458 E3.93768
G1 X88.482 Y86.813 E3.97430
G1 X88.636 Y87.185 E4.01092
G1 X88.753 Y87.571 E4.04754
G1 X88.831 Y87.966 E4.08416
G1 X88.871 Y88.367 E4.12080
G1 X88.871 Y88.773 E4.15771
G1 X88.830 Y89.179 E4.19489
G1 X88.749 Y89.580 E4.23209
G1 X88.628 Y89.971 E4.26930
G1 X88.469 Y90.348 E4.30650
G1 X88.303 Y90.655 E4.33824
G1 X87.740 Y90.381 F7800.000
G1 X87.545 Y90.668 E4.36977 F600.000
G1 X87.322 Y90.934 E4.40130
G1 X87.074 Y91.176 E4.43283
G1 X86.802 Y91.392 E4.46436
G1 X86.511 Y91.580 E4.49589
G1 X86.203 Y91.738 E4.52742
G1 X85.880 Y91.865 E4.55895
G1 X85.546 Y91.959 E4.59048
G1 X85.204 Y92.019 E4.62201
G1 X84.859 Y92.045 E4.65354
G1 X84.512 Y92.036 E4.68507
G1 X84.168 Y91.993 E4.71660
G1 X83.830 Y91.916 E4.74813
G1 X83.501 Y91.806 E4.77966
G1 X83.185 Y91.663 E4.81119
G1 X82.885 Y91.490 E4.84272
G1 X82.603 Y91.287 E4.87425
G1 X82.343 Y91.058 E4.90578
G1 X82.108 Y90.804 E4.93732
G1 X81.898 Y90.527 E4.96884
G1 X81.717 Y90.231 E5.00037
G1 X81.567 Y89.919 E5.03191
G1 X81.448 Y89.593 E5.06343
G1 X81.362 Y89.253 E5.09536
G1 X81.298 Y88.746 E5.14184
G1 X81.298 Y88.397 E5.17352
G1 X81.331 Y88.057 E5.20456
G1 X81.398 Y87.723 E5.23560
G1 X81.497 Y87.396 E5.26664
G1 X81.628 Y87.081 E5.29768
G1 X81.789 Y86.780 E5.32871
G1 X81.978 Y86.496 E5.35975
G1 X82.195 Y86.232 E5.39079
G1 X82.436 Y85.991 E5.42183
G1 X82.700 Y85.774 E5.45287
G1 X82.984 Y85.584 E5.48390
G1 X83.285 Y85.423 E5.51494
G1 X83.600 Y85.293 E5.54598
G1 X83.927 Y85.194 E5.57702
G1 X84.262 Y85.127 E5.60809
G1 X84.611 Y85.093 E5.63995 F600.000
G1 X84.943 Y85.094 E5.67014
G1 X85.282 Y85.127 E5.70117
G1 X85.617 Y85.194 E5.73220
G1 X85.944 Y85.293 E5.76324
G1 X86.259 Y85.423 E5.79428
G1 X86.560 Y85.584 E5.82532
G1 X86.844 Y85.774 E5.85635
G1 X87.108 Y85.991 E5.88739
G1 X87.349 Y86.232 E5.91843
G1 X87.566 Y86.496 E5.94947
G1 X87.755 Y86.780 E5.98050
G1 X87.916 Y87.081 E6.01154
G1 X88.047 Y87.396 E6.04258
G1 X88.146 Y87.723 E6.07362
G1 X88.213 Y88.057 E6.10466
G1 X88.246 Y88.397 E6.13570
G1 X88.246 Y88.741 E6.16698
G1 X88.211 Y89.086 E6.19851
G1 X88.143 Y89.426 E6.23004
G1 X88.040 Y89.757 E6.26157
G1 X87.906 Y90.077 E6.29310
G1 X87.769 Y90.329 E6.31917
G1 X87.901 Y90.689 F7800.000
G1 E4.31917 F2400.00000
G92 E0
G1 X85.415 Y83.884 F7800.000
G1 E2.00000 F2400.00000
G1 X85.005 Y83.844 E2.03754 F600.000
G1 X84.551 Y83.844 E2.07877
G1 X84.080 Y83.889 E2.12184
G1 X83.623 Y83.980 E2.16420
G1 X83.179 Y84.115 E2.20640
G1 X82.750 Y84.292 E2.24861
G1 X82.341 Y84.511 E2.29081
G1 X81.955 Y84.769 E2.33301
G1 X81.596 Y85.063 E2.37522
G1 X81.268 Y85.392 E2.41742
G1 X80.973 Y85.750 E2.45962
G1 X80.715 Y86.136 E2.50183
G1 X80.497 Y86.546 E2.54403
G1 X80.322 Y86.968 E2.58560
G1 X60.658 Y86.968 E4.37358
G1 X60.658 Y56.864 E7.11088
G1 X83.172 Y56.864 E9.15807
G1 X83.172 Y78.638 E11.13790
G1 X83.237 Y79.530 E11.21924
G1 X83.441 Y80.460 E11.30584
G1 X83.778 Y81.351 E11.39245
G1 X84.239 Y82.185 E11.47905
G1 X84.815 Y82.943 E11.56565
G1 X85.528 Y83.644 E11.65660
G1 X85.441 Y83.830 E11.67526
G1 X79.553 Y87.593 F7800.000
G1 X60.033 Y87.593 E13.45020 F600.000
G1 X60.033 Y56.240 E16.30115
G1 X83.797 Y56.240 E18.46198
G1 X83.797 Y78.615 E20.49658
G1 X83.857 Y79.440 E20.57176
G1 X84.042 Y80.282 E20.65014
G1 X84.346 Y81.088 E20.72853
G1 X84.764 Y81.843 E20.80692
G1 X85.285 Y82.529 E20.88531
G1 X85.900 Y83.133 E20.96370
G1 X86.586 Y83.636 E21.04101
G1 X87.532 Y84.169 E21.13978
G1 X87.942 Y84.454 E21.18521
G1 X88.323 Y84.778 E21.23064
G1 X88.824 Y85.318 E21.29768
G1 X89.249 Y85.934 E21.36571
G1 X89.492 Y86.403 E21.41374
G1 X89.678 Y86.862 E21.45875
G1 X89.814 Y87.319 E21.50209
G1 X89.911 Y87.821 E21.54858
G1 X89.959 Y88.318 E21.59397
G1 X89.959 Y88.826 E21.64022
G1 X89.906 Y89.354 E21.68845
G1 X89.735 Y90.099 E21.75793
G1 X89.558 Y90.585 E21.80501
G1 X89.210 Y91.266 E21.87449
G1 X88.906 Y91.713 E21.92366
G1 X88.398 Y92.285 E21.99323
G1 X88.010 Y92.628 E22.04034
G1 X87.580 Y92.937 E22.08852
G1 X87.380 Y93.060 E22.10986
G1 X86.681 Y93.398 E22.18045
G1 X86.179 Y93.567 E22.22864
G1 X85.675 Y93.682 E22.27562
G1 X85.144 Y93.747 E22.32429
G1 X84.631 Y93.760 E22.37094
G1 X83.870 Y93.682 E22.44045
G1 X83.129 Y93.495 E22.50993
G1 X82.625 Y93.297 E22.55923
G1 X81.954 Y92.930 E22.62871
G1 X81.525 Y92.622 E22.67677
G1 X81.332 Y92.459 E22.69971
G1 X80.966 Y92.101 E22.74629
G1 X80.623 Y91.690 E22.79499
G1 X80.334 Y91.266 E22.84164
G1 X80.097 Y90.832 E22.88658
G1 X79.898 Y90.359 E22.93323
G1 X79.739 Y89.849 E22.98181
G1 X79.635 Y89.325 E23.03039
G1 X79.584 Y88.815 E23.07703
G1 X79.555 Y87.653 E23.18273
G1 X78.944 Y88.218 F7800.000
G1 X59.408 Y88.218 E24.95907 F600.000
G1 X59.408 Y55.615 E27.92366
G1 X84.422 Y55.615 E30.19813
G1 X84.422 Y78.593 E32.28750
G1 X84.477 Y79.350 E32.35652
G1 X84.643 Y80.103 E32.42669
G1 X84.915 Y80.825 E32.49686
G1 X85.289 Y81.501 E32.56703
G1 X85.755 Y82.115 E32.63721
G1 X86.306 Y82.656 E32.70738
G1 X86.925 Y83.110 E32.77717
G1 X87.865 Y83.639 E32.87525
G1 X88.324 Y83.959 E32.92615
G1 X88.751 Y84.321 E32.97705
G1 X89.143 Y84.726 E33.02833
G1 X89.318 Y84.934 E33.05302
G1 X89.650 Y85.395 E33.10469
G1 X89.793 Y85.626 E33.12935
G1 X90.061 Y86.141 E33.18219
G1 X90.266 Y86.648 E33.23193
G1 X90.423 Y87.177 E33.28208
G1 X90.531 Y87.731 E33.33336
G1 X90.584 Y88.288 E33.38425
G1 X90.584 Y88.858 E33.43607
G1 X90.526 Y89.439 E33.48923
G1 X90.477 Y89.717 E33.51482
G1 X90.333 Y90.283 E33.56797
G1 X90.134 Y90.828 E33.62072
G1 X89.881 Y91.355 E33.67386
G1 X89.740 Y91.598 E33.69946
G1 X89.408 Y92.085 E33.75296
G1 X89.221 Y92.318 E33.78016
G1 X88.835 Y92.733 E33.83172
G1 X88.400 Y93.117 E33.88449
G1 X87.926 Y93.458 E33.93763
G1 X87.685 Y93.605 E33.96322
G1 X87.161 Y93.874 E34.01677
G1 X86.902 Y93.983 E34.04236
G1 X86.348 Y94.169 E34.09550
G1 X85.783 Y94.298 E34.14822
G1 X85.189 Y94.371 E34.20258
G1 X84.623 Y94.385 E34.25413
G1 X84.341 Y94.371 E34.27974
G1 X83.762 Y94.298 E34.33288
G1 X83.192 Y94.168 E34.38603
G1 X82.923 Y94.085 E34.41162
G1 X82.375 Y93.870 E34.46516
G1 X82.121 Y93.748 E34.49075
G1 X81.615 Y93.456 E34.54390
G1 X81.141 Y93.115 E34.59700
G1 X80.912 Y92.922 E34.62421
G1 X80.507 Y92.526 E34.67574
G1 X80.123 Y92.067 E34.73011
G1 X79.804 Y91.599 E34.78166
G1 X79.531 Y91.096 E34.83365
G1 X79.310 Y90.574 E34.88520
G1 X79.133 Y90.004 E34.93953
G1 X79.016 Y89.418 E34.99386
G1 X78.960 Y88.854 E35.04541
G1 X78.945 Y88.278 E35.09779
G1 X78.941 Y87.818 F7800.000
G1 X80.191 Y87.280 F7800.000
G1 X80.139 Y87.894 E35.21644 F600.000
G1 X80.129 Y88.804 E35.39202
G1 X80.218 Y89.484 E35.52408
G1 X80.412 Y90.171 E35.66187
G1 X80.689 Y90.791 E35.79275
G1 X80.940 Y91.194 E35.88428
G1 X81.368 Y91.729 E36.01636
G1 X81.865 Y92.195 E36.14762
G1 X82.250 Y92.473 E36.23919
G1 X82.641 Y92.699 E36.32631
G1 X83.085 Y92.896 E36.42004
G1 X83.495 Y93.038 E36.50351
G1 X83.953 Y93.143 E36.59427
G1 X84.444 Y93.205 E36.68949
G1 X85.103 Y93.202 E36.81672
G1 X85.580 Y93.143 E36.90935
G1 X85.817 Y93.094 E36.95589
G1 X86.487 Y92.886 E37.09122
G1 X87.113 Y92.584 E37.22512
G1 X87.669 Y92.200 E37.35539
G1 X88.185 Y91.719 E37.49144
G1 X88.467 Y91.388 E37.57531
G1 X88.732 Y91.001 E37.66568
G1 X88.952 Y90.594 E37.75501
G1 X89.211 Y89.937 E37.89107
G1 X89.366 Y89.279 E38.02133
G1 X89.415 Y88.788 E38.11648
G1 X89.415 Y88.344 E38.20222
G1 X89.372 Y87.897 E38.28872
G1 X89.226 Y87.245 E38.41752
G1 X89.152 Y87.013 E38.46453
G1 X88.978 Y86.591 E38.55246
G1 X88.675 Y86.047 E38.67251
G1 X88.497 Y85.791 E38.73262
G1 X88.223 Y85.455 E38.81618
G1 X87.884 Y85.117 E38.90845
G1 X87.549 Y84.842 E38.99201
G1 X87.242 Y84.632 E39.06385
G1 X86.750 Y84.358 E39.17230
G1 X85.764 Y83.876 E39.38387
G1 X61.342 Y86.589 F7800.000
G1 X61.037 Y86.284 E39.42319 F600.000
G1 X61.037 Y85.398 E39.50394
G1 X62.228 Y86.589 E39.65745
G1 X63.114 Y86.589 E39.73819
G1 X61.037 Y84.513 E40.00589
G1 X61.037 Y83.627 E40.08663
G1 X63.999 Y86.589 E40.46852
G1 X64.885 Y86.589 E40.54926
G1 X61.037 Y82.741 E41.04533
G1 X61.037 Y81.855 E41.12607
G1 X65.771 Y86.589 E41.73633
G1 X66.657 Y86.589 E41.81707
G1 X61.037 Y80.969 E42.54152
G1 X61.037 Y80.083 E42.62226
G1 X67.543 Y86.589 E43.46089
G1 X68.429 Y86.589 E43.54164
G1 X61.037 Y79.198 E44.49445
G1 X61.037 Y78.312 E44.57520
G1 X69.315 Y86.589 E45.64220
G1 X70.200 Y86.589 E45.72294
G1 X61.037 Y77.426 E46.90413
G1 X61.037 Y76.540 E46.98488
G1 X71.086 Y86.589 E48.28025
G1 X71.972 Y86.589 E48.36100
G1 X61.037 Y75.654 E49.77056
G1 X61.037 Y74.768 E49.85130
G1 X72.858 Y86.589 E51.37505
G1 X73.744 Y86.589 E51.45579
G1 X61.037 Y73.883 E53.09373
G1 X61.037 Y72.997 E53.17447
G1 X74.630 Y86.589 E54.92660
G1 X75.515 Y86.589 E55.00734
