; generated by Slic3r 1.2.9 on 2021-07-31 at 11:05:07

; external perimeters extrusion width = 0.40mm
; perimeters extrusion width = 0.48mm
; infill extrusion width = 0.48mm
; solid infill extrusion width = 0.48mm
; top infill extrusion width = 0.48mm

M107
M104 S190 ; set temperature
G28 ; home all axes
G1 Z5 F5000 ; lift nozzle

M109 S190 ; wait for temperature to be reached
G21 ; set units to millimeters
G90 ; use absolute coordinates
M82 ; use absolute distances for extrusion
G92 E0
G1 Z0.350 F3000.000
G1 E-2.00000 F2400.00000
G92 E0
G1 X49.510 Y47.288 F3000.000
G1 E2.00000 F2400.00000
G1 X51.280 Y45.436 E2.23294 F540.000
G1 X54.327 Y43.393 E2.56654
G1 X57.744 Y42.057 E2.90014
G1 X62.143 Y41.474 E3.30366
G1 X87.857 Y41.474 E5.64177
G1 X91.504 Y41.873 E5.97537
G1 X94.978 Y43.050 E6.30897 F540.000
G1 X98.116 Y44.951 E6.64257
G1 X100.769 Y47.485 E6.97617
G1 X102.812 Y50.532 E7.30976
G1 X104.148 Y53.949 E7.64336
G1 X104.731 Y58.348 E8.04688
G1 X104.731 Y91.652 E11.07512
G1 X104.333 Y95.299 E11.40872
G1 X103.155 Y98.773 E11.74231
G1 X101.254 Y101.911 E12.07591
G1 X98.720 Y104.564 E12.40951
G1 X95.673 Y106.607 E12.74311
G1 X92.256 Y107.943 E13.07671
G1 X87.857 Y108.526 E13.48022
G1 X62.143 Y108.526 E15.81834
G1 X58.496 Y108.127 E16.15194
G1 X55.022 Y106.950 E16.48554
G1 X51.884 Y105.049 E16.81913
G1 X49.231 Y102.515 E17.15273
G1 X47.188 Y99.468 E17.48633
G1 X45.852 Y96.051 E17.81993
G1 X45.269 Y91.652 E18.22345
G1 X45.269 Y58.348 E21.25169
G1 X45.667 Y54.701 E21.58528
G1 X46.845 Y51.227 E21.91888
G1 X48.746 Y48.089 E22.25248
G1 X49.469 Y47.332 E22.34768
G1 X49.947 Y47.718 F3000.000
G1 X51.890 Y45.742 E22.59966 F540.000
G1 X54.917 Y43.794 E22.92700
G1 X58.299 Y42.560 E23.25435
G1 X62.143 Y42.099 E23.60639
G1 X87.857 Y42.099 E25.94451
G1 X91.435 Y42.497 E26.27185
G1 X94.837 Y43.674 E26.59920 F540.000
G1 X97.896 Y45.571 E26.92654
G1 X100.463 Y48.095 E27.25389
G1 X102.411 Y51.122 E27.58123
G1 X103.645 Y54.504 E27.90858
G1 X104.107 Y58.348 E28.26062
G1 X104.107 Y91.652 E31.28886
G1 X103.708 Y95.229 E31.61620
G1 X102.531 Y98.632 E31.94355
G1 X100.634 Y101.691 E32.27089
G1 X98.110 Y104.258 E32.59824
G1 X95.083 Y106.206 E32.92558
G1 X91.701 Y107.440 E33.25292
G1 X87.857 Y107.901 E33.60497
G1 X62.143 Y107.901 E35.94309
G1 X58.565 Y107.503 E36.27043
G1 X55.163 Y106.326 E36.59777
G1 X52.104 Y104.429 E36.92512
G1 X49.537 Y101.905 E37.25246
G1 X47.589 Y98.878 E37.57981
G1 X46.355 Y95.496 E37.90715
G1 X45.893 Y91.652 E38.25919
G1 X45.893 Y58.348 E41.28743
G1 X46.292 Y54.771 E41.61478
G1 X47.469 Y51.368 E41.94212
G1 X49.366 Y48.309 E42.26947
G1 X49.905 Y47.761 E42.33937
G1 X50.374 Y48.151 F3000.000
G1 X52.499 Y46.055 E42.61077 F540.000
G1 X55.505 Y44.204 E42.93174
G1 X58.849 Y43.075 E43.25271
G1 X62.143 Y42.724 E43.55394
G1 X87.857 Y42.724 E45.89206
G1 X91.364 Y43.122 E46.21303
G1 X94.692 Y44.298 E46.53400 F540.000
G1 X97.672 Y46.191 E46.85497
G1 X100.150 Y48.704 E47.17594
G1 X102.001 Y51.710 E47.49690
G1 X103.130 Y55.054 E47.81787
G1 X103.482 Y58.348 E48.11911
G1 X103.482 Y91.652 E51.14735
G1 X103.083 Y95.159 E51.46831
G1 X101.907 Y98.487 E51.78928
G1 X100.014 Y101.467 E52.11025
G1 X97.501 Y103.945 E52.43122
G1 X94.495 Y105.796 E52.75219
G1 X91.151 Y106.925 E53.07316
G1 X87.857 Y107.276 E53.37439
G1 X62.143 Y107.276 E55.71251
G1 X58.636 Y106.878 E56.03348
G1 X55.308 Y105.702 E56.35445
G1 X52.328 Y103.809 E56.67542
G1 X49.850 Y101.296 E56.99638
G1 X47.999 Y98.290 E57.31735
G1 X46.870 Y94.946 E57.63832
G1 X46.518 Y91.652 E57.93956
G1 X46.518 Y58.348 E60.96779
G1 X46.917 Y54.841 E61.28876
G1 X48.093 Y51.513 E61.60973
G1 X49.986 Y48.533 E61.93070
G1 X50.331 Y48.193 E61.97482
G1 E59.97482 F2400.00000
G92 E0
G1 X86.882 Y90.677 F3000.000
G1 E2.00000 F2400.00000
G1 X63.118 Y90.677 E4.16083 F540.000
G1 X63.118 Y59.323 E7.01177
G1 X86.882 Y59.323 E9.17260
G1 X86.882 Y90.617 E12.01809
G1 X87.507 Y91.302 F3000.000
G1 X62.493 Y91.302 E14.29256 F270.000
G1 X62.493 Y58.698 E17.25715
G1 X87.507 Y58.698 E19.53161
G1 X87.507 Y91.242 E22.49075
G1 X87.160 Y91.102 F3000.000
G1 X63.802 Y90.298 F3000.000
G1 X63.497 Y89.993 E22.53062 F360.000
G1 X63.497 Y89.095 E22.61363
G1 X64.700 Y90.298 E22.77089
G1 X65.598 Y90.298 E22.85390
G1 X63.497 Y88.197 E23.12855
G1 X63.497 Y87.298 E23.21155
G1 X66.496 Y90.298 E23.60360
G1 X67.395 Y90.298 E23.68660
G1 X63.497 Y86.400 E24.19603
G1 X63.497 Y85.502 E24.27904
G1 X68.293 Y90.298 E24.90586
G1 X69.191 Y90.298 E24.98887
G1 X63.497 Y84.604 E25.73307
G1 X63.497 Y83.706 E25.81608
G1 X70.089 Y90.298 E26.67768
G1 X70.987 Y90.298 E26.76068
G1 X63.497 Y82.808 E27.73967
G1 X63.497 Y81.909 E27.82268
G1 X71.885 Y90.298 E28.91905
G1 X72.784 Y90.298 E29.00206
G1 X63.497 Y81.011 E30.21582
G1 X63.497 Y80.113 E30.29883
G1 X73.682 Y90.298 E31.62999
G1 X74.580 Y90.298 E31.71299
G1 X63.497 Y79.215 E33.16154
G1 X63.497 Y78.317 E33.24454
G1 X75.478 Y90.298 E34.81047
G1 X76.376 Y90.298 E34.89348
G1 X63.497 Y77.418 E36.57680
G1 X63.497 Y76.520 E36.65981
G1 X77.274 Y90.298 E38.46052
G1 X78.173 Y90.298 E38.54353
G1 X63.497 Y75.622 E40.46163
G1 X63.497 Y74.724 E40.54463
G1 X79.071 Y90.298 E42.58012
G1 X79.969 Y90.298 E42.66313
G1 X63.497 Y73.826 E44.81601
G1 X63.497 Y72.928 E44.89901
G1 X80.867 Y90.298 E47.16928
G1 X81.765 Y90.298 E47.25229
G1 X63.497 Y72.029 E49.63994
G1 X63.497 Y71.131 E49.72295
G1 X82.664 Y90.298 E52.22799
G1 X83.562 Y90.298 E52.31100
G1 X63.497 Y70.233 E54.93344
G1 X63.497 Y69.335 E55.01644
G1 X84.460 Y90.298 E57.75627
G1 X85.358 Y90.298 E57.83927
G1 X63.497 Y68.437 E60.69649
G1 X63.497 Y67.539 E60.77949
G1 X86.256 Y90.298 E63.75409
G1 X86.503 Y89.647 E63.81846
G1 X63.497 Y66.640 E66.82534
G1 X63.497 Y65.742 E66.90835
G1 X86.503 Y88.749 E69.91523
G1 X86.503 Y87.851 E69.99824
G1 X63.497 Y64.844 E73.00513
G1 X63.497 Y63.946 E73.08813
G1 X86.503 Y86.952 E76.09502
G1 X86.503 Y86.054 E76.17802
G1 X63.497 Y63.048 E79.18491
G1 X63.497 Y62.149 E79.26792
G1 X86.503 Y85.156 E82.27480
G1 X86.503 Y84.258 E82.35781
G1 X63.497 Y61.251 E85.36469
G1 X63.497 Y60.353 E85.44770
G1 X86.503 Y83.360 E88.45458
G1 X86.503 Y82.461 E88.53759
G1 X63.744 Y59.702 E91.51220
G1 X64.642 Y59.702 E91.59520
G1 X86.503 Y81.563 E94.45242
G1 X86.503 Y80.665 E94.53543
G1 X65.540 Y59.702 E97.27525
G1 X66.438 Y59.702 E97.35826
G1 X86.503 Y79.767 E99.98070
G1 X86.503 Y78.869 E100.06371
G1 X67.336 Y59.702 E102.56876
G1 X68.235 Y59.702 E102.65176
G1 X86.503 Y77.971 E105.03942
G1 X86.503 Y77.072 E105.12243
G1 X69.133 Y59.702 E107.39270
G1 X70.031 Y59.702 E107.47571
G1 X86.503 Y76.174 E109.62859
G1 X86.503 Y75.276 E109.71160
G1 X70.929 Y59.702 E111.74709
G1 X71.827 Y59.702 E111.83010
G1 X86.503 Y74.378 E113.74820
G1 X86.503 Y73.480 E113.83121
G1 X72.725 Y59.702 E115.63192
G1 X73.624 Y59.702 E115.71493
G1 X86.503 Y72.582 E117.39825
G1 X86.503 Y71.683 E117.48126
G1 X74.522 Y59.702 E119.04720
G1 X75.420 Y59.702 E119.13020
G1 X86.503 Y70.785 E120.57875
G1 X86.503 Y69.887 E120.66176
G1 X76.318 Y59.702 E121.99292
G1 X77.216 Y59.702 E122.07592
G1 X86.503 Y68.989 E123.28969
G1 X86.503 Y68.091 E123.37270
G1 X78.115 Y59.702 E124.46908
G1 X79.013 Y59.702 E124.55209
G1 X86.503 Y67.192 E125.53108
G1 X86.503 Y66.294 E125.61408
G1 X79.911 Y59.702 E126.47569
G1 X80.809 Y59.702 E126.55869
G1 X86.503 Y65.396 E127.30290
G1 X86.503 Y64.498 E127.38591
G1 X81.707 Y59.702 E128.01273
G1 X82.605 Y59.702 E128.09574
G1 X86.503 Y63.600 E128.60518
G1 X86.503 Y62.702 E128.68818
G1 X83.504 Y59.702 E129.08023
G1 X84.402 Y59.702 E129.16323
G1 X86.503 Y61.803 E129.43789
G1 X86.503 Y60.905 E129.52090
G1 X85.300 Y59.702 E129.67816
G1 X86.198 Y59.702 E129.76117
G1 X86.503 Y60.007 E129.80105
G1 Z0.650 F3000.000
G1 X87.280 Y91.074 F3000.000
G1 X62.721 Y91.074 E131.08413 F1800.000
G1 X62.721 Y58.926 E132.76373
G1 X87.280 Y58.926 E134.04682
G1 X87.280 Y91.014 E135.72328
G1 X87.657 Y91.452 F3000.000
G1 X62.343 Y91.452 E136.78291 F900.000
G1 X62.343 Y58.548 E138.16025
G1 X87.657 Y58.548 E139.21988
G1 X87.657 Y91.392 E140.59470
G1 X87.310 Y91.252 F3000.000
G1 X83.690 Y90.827 F3000.000
G1 X87.032 Y87.484 E140.84169 F1800.000
G1 X87.032 Y81.561 E141.15118
G1 X77.766 Y90.827 E141.83584
G1 X71.842 Y90.827 E142.14533
G1 X87.032 Y75.637 E143.26769
G1 X87.032 Y69.713 E143.57718
G1 X65.918 Y90.827 E145.13722
G1 X62.968 Y87.854 E145.35606
G1 X87.032 Y63.789 E147.13409
G1 X85.725 Y59.173 E147.38475
G1 X62.968 Y81.930 E149.06615
G1 X62.968 Y76.006 E149.37564
G1 X79.801 Y59.173 E150.61937
G1 X73.877 Y59.173 E150.92886
G1 X62.968 Y70.082 E151.73489
G1 X62.968 Y64.158 E152.04438
G1 X67.953 Y59.173 E152.41273
G1 Z0.950 F3000.000
G1 X87.280 Y91.074 F3000.000
G1 X62.721 Y91.074 E153.69581 F1800.000
G1 X62.721 Y58.926 E155.37542
G1 X87.280 Y58.926 E156.65850
G1 X87.280 Y91.014 E158.33497
G1 X87.657 Y91.452 F3000.000
G1 X62.343 Y91.452 E159.39460 F900.000
G1 X62.343 Y58.548 E160.77193
G1 X87.657 Y58.548 E161.83156
G1 X87.657 Y91.392 E163.20639
G1 X87.310 Y91.252 F3000.000
G1 X62.968 Y85.842 F3000.000
G1 X67.953 Y90.827 E163.57473 F1800.000
G1 X73.877 Y90.827 E163.88423
G1 X62.968 Y79.918 E164.69026
G1 X62.968 Y73.994 E164.99975
G1 X79.801 Y90.827 E166.24347
G1 X85.725 Y90.827 E166.55296
G1 X62.968 Y68.070 E168.23437
G1 X62.968 Y62.146 E168.54386
G1 X87.032 Y86.211 E170.32189
G1 X87.032 Y80.287 E170.63138
G1 X65.918 Y59.173 E172.19142
G1 X71.842 Y59.173 E172.50091
G1 X87.032 Y74.363 E173.62326
G1 X87.032 Y68.439 E173.93275
G1 X77.766 Y59.173 E174.61742
G1 X83.690 Y59.173 E174.92691
G1 X87.032 Y62.516 E175.17389
M106 S211.65
G1 Z1.250 F3000.000
G1 X87.280 Y91.074 F3000.000
G1 X62.721 Y91.074 E176.45697 F1800.000
G1 X62.721 Y58.926 E178.13657
G1 X87.280 Y58.926 E179.41966
G1 X87.280 Y91.014 E181.09612
G1 X87.657 Y91.452 F3000.000
G1 X62.343 Y91.452 E182.15575 F900.000
G1 X62.343 Y58.548 E183.53309
G1 X87.657 Y58.548 E184.59272
G1 X87.657 Y91.392 E185.96754
G1 X87.310 Y91.252 F3000.000
G1 X83.690 Y90.827 F3000.000
G1 X87.032 Y87.484 E186.21452 F1800.000
G1 X87.032 Y81.561 E186.52402
G1 X77.766 Y90.827 E187.20868
G1 X71.842 Y90.827 E187.51817
G1 X87.032 Y75.637 E188.64053
G1 X87.032 Y69.713 E188.95002
G1 X65.918 Y90.827 E190.51006
G1 X62.968 Y87.854 E190.72890
G1 X87.032 Y63.789 E192.50693
G1 X85.725 Y59.173 E192.75759
G1 X62.968 Y81.930 E194.43899
G1 X62.968 Y76.006 E194.74848
G1 X79.801 Y59.173 E195.99221
G1 X73.877 Y59.173 E196.30170
G1 X62.968 Y70.082 E197.10773
G1 X62.968 Y64.158 E197.41722
G1 X67.953 Y59.173 E197.78557
G1 Z1.550 F3000.000
G1 X87.280 Y91.074 F3000.000
G1 X62.721 Y91.074 E199.06865 F1800.000
G1 X62.721 Y58.926 E200.74825
G1 X87.280 Y58.926 E202.03134
G1 X87.280 Y91.014 E203.70780
G1 X87.657 Y91.452 F3000.000
G1 X62.343 Y91.452 E204.76744 F900.000
G1 X62.343 Y58.548 E206.14477
G1 X87.657 Y58.548 E207.20440
G1 X87.657 Y91.392 E208.57923
G1 X87.310 Y91.252 F3000.000
G1 X62.968 Y85.842 F3000.000
G1 X67.953 Y90.827 E208.94757 F1800.000
G1 X73.877 Y90.827 E209.25706
G1 X62.968 Y79.918 E210.06310
G1 X62.968 Y73.994 E210.37259
G1 X79.801 Y90.827 E211.61631
G1 X85.725 Y90.827 E211.92580
G1 X62.968 Y68.070 E213.60721
G1 X62.968 Y62.146 E213.91670
G1 X87.032 Y86.211 E215.69473
G1 X87.032 Y80.287 E216.00422
G1 X65.918 Y59.173 E217.56425
G1 X71.842 Y59.173 E217.87375
G1 X87.032 Y74.363 E218.99610
G1 X87.032 Y68.439 E219.30559
G1 X77.766 Y59.173 E219.99026
G1 X83.690 Y59.173 E220.29975
G1 X87.032 Y62.516 E220.54673
G1 Z1.850 F3000.000
G1 X87.280 Y91.074 F3000.000
G1 X62.721 Y91.074 E221.82981 F1800.000
G1 X62.721 Y58.926 E223.50941
G1 X87.280 Y58.926 E224.79250
G1 X87.280 Y91.014 E226.46896
G1 X87.657 Y91.452 F3000.000
G1 X62.343 Y91.452 E227.52859 F900.000
G1 X62.343 Y58.548 E228.90593
G1 X87.657 Y58.548 E229.96556
G1 X87.657 Y91.392 E231.34038
G1 X87.310 Y91.252 F3000.000
G1 X83.690 Y90.827 F3000.000
G1 X87.032 Y87.484 E231.58736 F1800.000
G1 X87.032 Y81.561 E231.89686
G1 X77.766 Y90.827 E232.58152
G1 X71.842 Y90.827 E232.89101
G1 X87.032 Y75.637 E234.01337
G1 X87.032 Y69.713 E234.32286
G1 X65.918 Y90.827 E235.88289
G1 X62.968 Y87.854 E236.10174
G1 X87.032 Y63.789 E237.87977
G1 X85.725 Y59.173 E238.13043
G1 X62.968 Y81.930 E239.81183
G1 X62.968 Y76.006 E240.12132
G1 X79.801 Y59.173 E241.36504
G1 X73.877 Y59.173 E241.67454
G1 X62.968 Y70.082 E242.48057
G1 X62.968 Y64.158 E242.79006
G1 X67.953 Y59.173 E243.15841
G1 Z2.150 F3000.000
G1 X87.280 Y91.074 F3000.000
G1 X62.721 Y91.074 E244.44149 F1800.000
G1 X62.721 Y58.926 E246.12109
G1 X87.280 Y58.926 E247.40418
G1 X87.280 Y91.014 E249.08064
G1 X87.657 Y91.452 F3000.000
G1 X62.343 Y91.452 E250.14028 F900.000
G1 X62.343 Y58.548 E251.51761
G1 X87.657 Y58.548 E252.57724
G1 X87.657 Y91.392 E253.95206
G1 X87.310 Y91.252 F3000.000
G1 X62.968 Y85.842 F3000.000
G1 X67.953 Y90.827 E254.32041 F1800.000
G1 X73.877 Y90.827 E254.62990
G1 X62.968 Y79.918 E255.43594
G1 X62.968 Y73.994 E255.74543
G1 X79.801 Y90.827 E256.98915
G1 X85.725 Y90.827 E257.29864
G1 X62.968 Y68.070 E258.98005
G1 X62.968 Y62.146 E259.28954
G1 X87.032 Y86.211 E261.06756
G1 X87.032 Y80.287 E261.37706
G1 X65.918 Y59.173 E262.93709
G1 X71.842 Y59.173 E263.24658
G1 X87.032 Y74.363 E264.36894
G1 X87.032 Y68.439 E264.67843
G1 X77.766 Y59.173 E265.36310
G1 X83.690 Y59.173 E265.67259
G1 X87.032 Y62.516 E265.91957
G1 Z2.450 F3000.000
G1 X87.280 Y91.074 F3000.000
G1 X62.721 Y91.074 E267.20265 F1800.000
G1 X62.721 Y58.926 E268.88225
G1 X87.280 Y58.926 E270.16534
G1 X87.280 Y91.014 E271.84180
G1 X87.657 Y91.452 F3000.000
G1 X62.343 Y91.452 E272.90143 F900.000
G1 X62.343 Y58.548 E274.27877
G1 X87.657 Y58.548 E275.33840
G1 X87.657 Y91.392 E276.71322
G1 X87.310 Y91.252 F3000.000
G1 X83.690 Y90.827 F3000.000
G1 X87.032 Y87.484 E276.96020 F1800.000
G1 X87.032 Y81.561 E277.26969
G1 X77.766 Y90.827 E277.95436
G1 X71.842 Y90.827 E278.26385
G1 X87.032 Y75.637 E279.38621
G1 X87.032 Y69.713 E279.69570
G1 X65.918 Y90.827 E281.25573
G1 X62.968 Y87.854 E281.47458
G1 X87.032 Y63.789 E283.25261
G1 X85.725 Y59.173 E283.50327
G1 X62.968 Y81.930 E285.18467
G1 X62.968 Y76.006 E285.49416
G1 X79.801 Y59.173 E286.73788
G1 X73.877 Y59.173 E287.04737
G1 X62.968 Y70.082 E287.85341
G1 X62.968 Y64.158 E288.16290
G1 X67.953 Y59.173 E288.53125
G1 Z2.750 F3000.000
G1 X87.280 Y91.074 F3000.000
G1 X62.721 Y91.074 E289.81433 F1800.000
G1 X62.721 Y58.926 E291.49393
G1 X87.280 Y58.926 E292.77702
G1 X87.280 Y91.014 E294.45348
G1 X87.657 Y91.452 F3000.000
G1 X62.343 Y91.452 E295.51311 F900.000
G1 X62.343 Y58.548 E296.89045
G1 X87.657 Y58.548 E297.95008
G1 X87.657 Y91.392 E299.32490
G1 X87.310 Y91.252 F3000.000
G1 X62.968 Y85.842 F3000.000
G1 X67.953 Y90.827 E299.69325 F1800.000
G1 X73.877 Y90.827 E300.00274
G1 X62.968 Y79.918 E300.80878
G1 X62.968 Y73.994 E301.11827
G1 X79.801 Y90.827 E302.36199
G1 X85.725 Y90.827 E302.67148
G1 X62.968 Y68.070 E304.35289
G1 X62.968 Y62.146 E304.66238
G1 X87.032 Y86.211 E306.44040
G1 X87.032 Y80.287 E306.74989
G1 X65.918 Y59.173 E308.30993
G1 X71.842 Y59.173 E308.61942
G1 X87.032 Y74.363 E309.74178
G1 X87.032 Y68.439 E310.05127
G1 X77.766 Y59.173 E310.73594
G1 X83.690 Y59.173 E311.04543
G1 X87.032 Y62.516 E311.29241
M107
G1 Z3.050 F3000.000
G1 E309.29241 F2400.00000
G92 E0
G1 X87.280 Y91.074 F3000.000
G1 E2.00000 F2400.00000
G1 X62.721 Y91.074 E3.28308 F1800.000
G1 X62.721 Y58.926 E4.96268
G1 X87.280 Y58.926 E6.24577
G1 X87.280 Y91.014 E7.92223
G1 X87.657 Y91.452 F3000.000
G1 X62.343 Y91.452 E8.98187 F900.000
G1 X62.343 Y58.548 E10.35920
G1 X87.657 Y58.548 E11.41883
G1 X87.657 Y91.392 E12.79366
G1 X87.310 Y91.252 F3000.000
G1 X86.815 Y90.827 F3000.000
G1 X87.032 Y90.609 E12.80988 F900.000
G1 X87.032 Y90.012 E12.84137
G1 X86.217 Y90.827 E12.90214
G1 X85.620 Y90.827 E12.93363
G1 X87.032 Y89.414 E13.03893
G1 X87.032 Y88.817 E13.07042
G1 X85.022 Y90.827 E13.22026
G1 X84.424 Y90.827 E13.25175
G1 X87.032 Y88.219 E13.44612
G1 X87.032 Y87.622 E13.47761
G1 X83.827 Y90.827 E13.71652
G1 X83.229 Y90.827 E13.74801
G1 X87.032 Y87.024 E14.03146
G1 X87.032 Y86.427 E14.06295
G1 X82.632 Y90.827 E14.39093
G1 X82.034 Y90.827 E14.42243
G1 X87.032 Y85.829 E14.79494
G1 X86.723 Y85.541 E14.81723
G1 X81.437 Y90.827 E15.21123
G1 X80.839 Y90.827 E15.24273
G1 X87.032 Y84.634 E15.70432
G1 X87.032 Y84.036 E15.73581
G1 X80.241 Y90.827 E16.24194
