; generated by Slic3r 1.2.9 on 2021-07-26 at 18:32:29

; external perimeters extrusion width = 0.40mm
; perimeters extrusion width = 0.48mm
; infill extrusion width = 0.48mm
; solid infill extrusion width = 0.48mm
; top infill extrusion width = 0.48mm

M107
M104 S185 ; set temperature
G28 ; home all axes
G1 Z5 F5000 ; lift nozzle

M109 S185 ; wait for temperature to be reached
G21 ; set units to millimeters
G90 ; use absolute coordinates
M82 ; use absolute distances for extrusion
G92 E0
G1 Z0.400 F7800.000
G1 E-2.00000 F2400.00000
G92 E0
G1 X48.399 Y47.394 F7800.000
G1 E2.00000 F2400.00000
G1 X50.154 Y45.895 E2.27422 F1800.000
G1 X52.315 Y45.079 E2.54845
G1 X53.572 Y44.960 E2.69842
G1 X66.428 Y44.960 E4.22535
G1 X68.703 Y45.357 E4.49958
G1 X70.709 Y46.501 E4.77380 F1800.000
G1 X72.208 Y48.257 E5.04803
G1 X73.024 Y50.417 E5.32225
G1 X73.143 Y51.674 E5.47222
G1 X73.143 Y68.326 E7.44984
G1 X72.746 Y70.600 E7.72407
G1 X71.601 Y72.606 E7.99829
G1 X69.846 Y74.105 E8.27252
G1 X67.685 Y74.921 E8.54674
G1 X66.428 Y75.040 E8.69671
G1 X53.572 Y75.040 E10.22364
G1 X51.297 Y74.643 E10.49787
G1 X49.291 Y73.499 E10.77209
G1 X47.792 Y71.743 E11.04632
G1 X46.976 Y69.583 E11.32054
G1 X46.857 Y68.326 E11.47051
G1 X46.857 Y51.674 E13.44813
G1 X47.254 Y49.400 E13.72236
G1 X48.369 Y47.446 E13.98946
G1 E11.98946 F2400.00000
G92 E0
G1 X64.600 Y66.497 F7800.000
G1 E2.00000 F2400.00000
G1 X55.400 Y66.497 E3.09265 F1800.000
G1 X55.400 Y53.503 E4.63600
G1 X64.600 Y53.503 E5.72865
G1 X64.600 Y66.437 E7.26487
G1 X65.314 Y67.212 F7800.000
G1 X54.686 Y67.212 E8.52716 F1800.000
G1 X54.686 Y52.788 E10.24014
G1 X65.314 Y52.788 E11.50243
G1 X65.314 Y67.152 E13.20828
G1 X66.028 Y67.926 F7800.000
G1 X53.972 Y67.926 E14.64020 F1800.000
G1 X53.972 Y52.074 E16.52282
G1 X66.028 Y52.074 E17.95474
G1 X66.028 Y67.866 E19.83023
G1 X65.682 Y67.726 F7800.000
G1 X56.178 Y66.062 F7800.000
G1 X55.835 Y65.719 E19.88957 F1800.000
G1 X55.835 Y64.679 E20.01685
G1 X57.219 Y66.062 E20.25618
G1 X58.259 Y66.062 E20.38346
G1 X55.835 Y63.638 E20.80280
G1 X55.835 Y62.598 E20.93008
G1 X59.300 Y66.062 E21.52941
G1 X60.340 Y66.062 E21.65669
G1 X55.835 Y61.557 E22.43602
G1 X55.835 Y60.517 E22.56330
G1 X61.380 Y66.062 E23.52263
G1 X62.421 Y66.062 E23.64991
G1 X55.835 Y59.477 E24.78924
G1 X55.835 Y58.436 E24.91652
G1 X63.461 Y66.062 E26.23585
G1 X64.165 Y65.725 E26.33127
G1 X55.835 Y57.396 E27.77232
G1 X55.835 Y56.356 E27.89960
G1 X64.165 Y64.685 E29.34064
G1 X64.165 Y63.644 E29.46792
G1 X55.835 Y55.315 E30.90897
G1 X55.835 Y54.275 E31.03625
G1 X64.165 Y62.604 E32.47729
G1 X64.165 Y61.564 E32.60457
G1 X56.539 Y53.938 E33.92390
G1 X57.579 Y53.938 E34.05118
G1 X64.165 Y60.523 E35.19051
G1 X64.165 Y59.483 E35.31779
G1 X58.620 Y53.938 E36.27712
G1 X59.660 Y53.938 E36.40440
G1 X64.165 Y58.443 E37.18374
G1 X64.165 Y57.402 E37.31101
G1 X60.700 Y53.938 E37.91035
G1 X61.741 Y53.938 E38.03763
G1 X64.165 Y56.362 E38.45697
G1 X64.165 Y55.321 E38.58425
G1 X62.781 Y53.938 E38.82359
G1 X63.822 Y53.938 E38.95086
G1 X64.165 Y54.281 E39.01021
M104 S180 ; set temperature
G1 Z0.700 F7800.000
G1 X65.432 Y67.330 F7800.000
G1 X54.568 Y67.330 E39.57782 F900.000
G1 X54.568 Y52.670 E40.34370
G1 X65.432 Y52.670 E40.91131
G1 X65.432 Y67.270 E41.67405
G1 X65.851 Y67.749 F7800.000
G1 X54.149 Y67.749 E42.28543 F900.000
G1 X54.149 Y52.251 E43.09507
G1 X65.851 Y52.251 E43.70646
G1 X65.851 Y67.689 E44.51297
G1 X66.228 Y68.126 F7800.000
G1 X53.772 Y68.126 E45.03441 F450.000
G1 X53.772 Y51.874 E45.71470
G1 X66.228 Y51.874 E46.23615
G1 X66.228 Y68.066 E46.91393
G1 X65.882 Y67.926 F7800.000
G1 X64.967 Y67.082 F7800.000
G1 X65.185 Y66.865 E46.93029 F1200.000
G1 X65.185 Y66.262 E46.96231
G1 X64.365 Y67.082 E47.02394
G1 X63.762 Y67.082 E47.05596
G1 X65.185 Y65.660 E47.16287
G1 X65.185 Y65.057 E47.19488
G1 X63.160 Y67.082 E47.34707
G1 X62.557 Y67.082 E47.37908
G1 X65.185 Y64.455 E47.57654
G1 X65.185 Y63.852 E47.60856
G1 X61.955 Y67.082 E47.85129
G1 X61.352 Y67.082 E47.88331
G1 X65.185 Y63.250 E48.17132
G1 X65.185 Y62.647 E48.20333
G1 X60.750 Y67.082 E48.53662
G1 X60.147 Y67.082 E48.56863
G1 X65.185 Y62.045 E48.94719
G1 X65.185 Y61.442 E48.97920
G1 X59.545 Y67.082 E49.40304
G1 X58.942 Y67.082 E49.43505
G1 X65.185 Y60.840 E49.90416
G1 X65.185 Y60.237 E49.93618
G1 X58.340 Y67.082 E50.45056
G1 X57.737 Y67.082 E50.48258
G1 X65.185 Y59.635 E51.04224
G1 X65.185 Y59.032 E51.07425
G1 X57.135 Y67.082 E51.67919
G1 X56.532 Y67.082 E51.71120
G1 X65.185 Y58.430 E52.36141
G1 X65.185 Y57.827 E52.39343
G1 X55.930 Y67.082 E53.08891
G1 X55.327 Y67.082 E53.12093
G1 X65.185 Y57.225 E53.86169
G1 X65.185 Y56.622 E53.89370
G1 X54.815 Y66.993 E54.67298
G1 X54.815 Y66.390 E54.70499
G1 X65.185 Y56.020 E55.48427
G1 X65.185 Y55.417 E55.51629
G1 X54.815 Y65.788 E56.29556
G1 X54.815 Y65.185 E56.32758
G1 X65.185 Y54.815 E57.10686
G1 X65.185 Y54.212 E57.13887
G1 X54.815 Y64.583 E57.91815
G1 X54.815 Y63.980 E57.95016
G1 X65.185 Y53.610 E58.72944
G1 X65.185 Y53.007 E58.76145
G1 X54.815 Y63.378 E59.54073
G1 X54.815 Y62.775 E59.57275
G1 X64.673 Y52.918 E60.31351
G1 X64.070 Y52.918 E60.34552
G1 X54.815 Y62.173 E61.04101
G1 X54.815 Y61.570 E61.07302
G1 X63.468 Y52.918 E61.72323
G1 X62.865 Y52.918 E61.75524
G1 X54.815 Y60.968 E62.36018
G1 X54.815 Y60.365 E62.39219
G1 X62.263 Y52.918 E62.95185
G1 X61.660 Y52.918 E62.98387
G1 X54.815 Y59.763 E63.49825
G1 X54.815 Y59.160 E63.53027
G1 X61.058 Y52.918 E63.99938
G1 X60.455 Y52.918 E64.03139
G1 X54.815 Y58.558 E64.45523
G1 X54.815 Y57.955 E64.48724
G1 X59.853 Y52.918 E64.86580
G1 X59.250 Y52.918 E64.89782
G1 X54.815 Y57.353 E65.23110
G1 X54.815 Y56.750 E65.26312
G1 X58.648 Y52.918 E65.55113
G1 X58.045 Y52.918 E65.58314
G1 X54.815 Y56.148 E65.82588
G1 X54.815 Y55.545 E65.85789
G1 X57.443 Y52.918 E66.05535
G1 X56.840 Y52.918 E66.08736
G1 X54.815 Y54.943 E66.23955
G1 X54.815 Y54.340 E66.27156
G1 X56.238 Y52.918 E66.37847
G1 X55.635 Y52.918 E66.41049
G1 X54.815 Y53.738 E66.47212
G1 X54.815 Y53.135 E66.50414
G1 X55.033 Y52.918 E66.52050
G1 Z1.000 F7800.000
G1 X65.432 Y67.330 F7800.000
G1 X54.568 Y67.330 E67.08811 F900.000
G1 X54.568 Y52.670 E67.85399
G1 X65.432 Y52.670 E68.42160
G1 X65.432 Y67.270 E69.18434
G1 X65.851 Y67.749 F7800.000
G1 X54.149 Y67.749 E69.79572 F900.000
G1 X54.149 Y52.251 E70.60537
G1 X65.851 Y52.251 E71.21675
G1 X65.851 Y67.689 E72.02326
G1 X66.228 Y68.126 F7800.000
G1 X53.772 Y68.126 E72.54470 F450.000
G1 X53.772 Y51.874 E73.22500
G1 X66.228 Y51.874 E73.74644
G1 X66.228 Y68.066 E74.42422
G1 X65.882 Y67.926 F7800.000
G1 X54.815 Y66.865 F7800.000
G1 X55.033 Y67.082 E74.44058 F1200.000
G1 X55.635 Y67.082 E74.47260
G1 X54.815 Y66.262 E74.53423
G1 X54.815 Y65.660 E74.56625
G1 X56.238 Y67.082 E74.67316
G1 X56.840 Y67.082 E74.70517
G1 X54.815 Y65.057 E74.85736
G1 X54.815 Y64.455 E74.88937
G1 X57.443 Y67.082 E75.08683
G1 X58.045 Y67.082 E75.11885
G1 X54.815 Y63.852 E75.36158
G1 X54.815 Y63.250 E75.39360
G1 X58.648 Y67.082 E75.68161
G1 X59.250 Y67.082 E75.71362
G1 X54.815 Y62.647 E76.04691
G1 X54.815 Y62.045 E76.07892
G1 X59.853 Y67.082 E76.45748
G1 X60.455 Y67.082 E76.48949
G1 X54.815 Y61.442 E76.91333
G1 X54.815 Y60.840 E76.94534
G1 X61.058 Y67.082 E77.41445
G1 X61.660 Y67.082 E77.44647
G1 X54.815 Y60.237 E77.96085
G1 X54.815 Y59.635 E77.99287
G1 X62.263 Y67.082 E78.55253
G1 X62.865 Y67.082 E78.58454
G1 X54.815 Y59.032 E79.18948
G1 X54.815 Y58.430 E79.22149
G1 X63.468 Y67.082 E79.87170
G1 X64.070 Y67.082 E79.90372
G1 X54.815 Y57.827 E80.59920
G1 X54.815 Y57.225 E80.63122
G1 X64.673 Y67.082 E81.37198
G1 X65.185 Y66.993 E81.39963
G1 X54.815 Y56.622 E82.17891
G1 X54.815 Y56.020 E82.21092
G1 X65.185 Y66.390 E82.99020
G1 X65.185 Y65.788 E83.02221
G1 X54.815 Y55.417 E83.80149
G1 X54.815 Y54.815 E83.83350
G1 X65.185 Y65.185 E84.61278
G1 X65.185 Y64.583 E84.64480
G1 X54.815 Y54.212 E85.42407
G1 X54.815 Y53.610 E85.45609
G1 X65.185 Y63.980 E86.23537
G1 X65.185 Y63.378 E86.26738
G1 X54.815 Y53.007 E87.04666
G1 X55.327 Y52.918 E87.07431
G1 X65.185 Y62.775 E87.81507
G1 X65.185 Y62.173 E87.84708
G1 X55.930 Y52.918 E88.54257
G1 X56.532 Y52.918 E88.57458
G1 X65.185 Y61.570 E89.22479
G1 X65.185 Y60.968 E89.25681
G1 X57.135 Y52.918 E89.86174
G1 X57.737 Y52.918 E89.89376
G1 X65.185 Y60.365 E90.45342
G1 X65.185 Y59.763 E90.48543
G1 X58.340 Y52.918 E90.99982
G1 X58.942 Y52.918 E91.03183
G1 X65.185 Y59.160 E91.50094
G1 X65.185 Y58.558 E91.53296
G1 X59.545 Y52.918 E91.95679
G1 X60.147 Y52.918 E91.98881
G1 X65.185 Y57.955 E92.36737
G1 X65.185 Y57.353 E92.39938
G1 X60.750 Y52.918 E92.73267
G1 X61.352 Y52.918 E92.76468
G1 X65.185 Y56.750 E93.05269
G1 X65.185 Y56.148 E93.08471
G1 X61.955 Y52.918 E93.32744
G1 X62.557 Y52.918 E93.35946
G1 X65.185 Y55.545 E93.55692
G1 X65.185 Y54.943 E93.58893
G1 X63.160 Y52.918 E93.74112
G1 X63.762 Y52.918 E93.77313
G1 X65.185 Y54.340 E93.88004
G1 X65.185 Y53.738 E93.91206
G1 X64.365 Y52.918 E93.97369
G1 X64.967 Y52.918 E94.00571
G1 X65.185 Y53.135 E94.02207
M106 S170.85
G1 Z1.300 F7800.000
G1 X65.432 Y67.330 F7800.000
G1 X54.568 Y67.330 E94.58968 F900.000
G1 X54.568 Y52.670 E95.35555
G1 X65.432 Y52.670 E95.92317
G1 X65.432 Y67.270 E96.68591
G1 X65.851 Y67.749 F7800.000
G1 X54.149 Y67.749 E97.29729 F900.000
G1 X54.149 Y52.251 E98.10693
G1 X65.851 Y52.251 E98.71832
G1 X65.851 Y67.689 E99.52483
G1 X66.228 Y68.126 F7800.000
G1 X53.772 Y68.126 E100.04627 F450.000
G1 X53.772 Y51.874 E100.72656
G1 X66.228 Y51.874 E101.24801
G1 X66.228 Y68.066 E101.92579
G1 X65.882 Y67.926 F7800.000
G1 X64.967 Y67.082 F7800.000
G1 X65.185 Y66.865 E101.94204 F1200.000
G1 X65.185 Y66.267 E101.97360
G1 X64.369 Y67.082 E102.03448
G1 X63.771 Y67.082 E102.06604
G1 X65.185 Y65.668 E102.17156
G1 X65.185 Y65.070 E102.20312
G1 X63.173 Y67.082 E102.35327
G1 X62.574 Y67.082 E102.38484
G1 X65.185 Y64.472 E102.57963
G1 X65.185 Y63.874 E102.61119
G1 X61.976 Y67.082 E102.85062
G1 X61.378 Y67.082 E102.88218
G1 X65.185 Y63.275 E103.16624
G1 X65.185 Y62.677 E103.19780
G1 X60.780 Y67.082 E103.52650
G1 X60.182 Y67.082 E103.55806
G1 X65.185 Y62.079 E103.93140
G1 X65.185 Y61.481 E103.96296
G1 X59.583 Y67.082 E104.38093
G1 X58.985 Y67.082 E104.41249
G1 X65.185 Y60.883 E104.87510
G1 X65.185 Y60.284 E104.90666
G1 X58.387 Y67.082 E105.41390
G1 X57.789 Y67.082 E105.44547
G1 X65.185 Y59.686 E105.99735
G1 X65.185 Y59.088 E106.02891
G1 X57.190 Y67.082 E106.62542
G1 X56.592 Y67.082 E106.65699
G1 X65.185 Y58.490 E107.29814
G1 X65.185 Y57.891 E107.32970
G1 X55.994 Y67.082 E108.01549
G1 X55.396 Y67.082 E108.04705
G1 X65.185 Y57.293 E108.77747
G1 X65.050 Y56.830 E108.80292
G1 X54.826 Y67.054 E109.56575
G1 X54.815 Y66.467 E109.59672
G1 X64.751 Y56.531 E110.33807
G1 X64.452 Y56.232 E110.36038
G1 X54.815 Y65.869 E111.07942
G1 X54.815 Y65.270 E111.11098
G1 X64.150 Y55.935 E111.80750
G1 X63.829 Y55.658 E111.82988
G1 X54.815 Y64.672 E112.50248
G1 X54.815 Y64.074 E112.53404
G1 X63.498 Y55.391 E113.18191
G1 X63.157 Y55.134 E113.20444
G1 X54.815 Y63.476 E113.82689
G1 X54.815 Y62.877 E113.85845
G1 X62.801 Y54.892 E114.45431
G1 X62.432 Y54.662 E114.47722
G1 X54.815 Y62.279 E115.04558
G1 X54.815 Y61.681 E115.07714
G1 X62.044 Y54.452 E115.61653
G1 X61.637 Y54.261 E115.64025
G1 X54.815 Y61.083 E116.14929
G1 X54.815 Y60.485 E116.18085
G1 X61.205 Y54.095 E116.65761
G1 X60.745 Y53.957 E116.68295
G1 X54.815 Y59.886 E117.12539
G1 X54.815 Y59.288 E117.15695
G1 X60.245 Y53.858 E117.56212
G1 X59.699 Y53.806 E117.59108
G1 X54.815 Y58.690 E117.95547
G1 X54.815 Y58.092 E117.98703
G1 X59.079 Y53.828 E118.30517
G1 X58.345 Y53.963 E118.34454
G1 X54.815 Y57.493 E118.60792
G1 X54.815 Y56.895 E118.63949
G1 X57.566 Y54.144 E118.84476
G1 X56.989 Y54.123 E118.87523
G1 X54.815 Y56.297 E119.03745
G1 X54.815 Y55.699 E119.06901
G1 X56.621 Y53.893 E119.20378
G1 X56.235 Y53.680 E119.22701
G1 X54.815 Y55.101 E119.33299
G1 X54.815 Y54.502 E119.36456
G1 X55.836 Y53.481 E119.44074
G1 X55.432 Y53.287 E119.46439
G1 X54.815 Y53.904 E119.51041
G1 X54.815 Y53.306 E119.54198
G1 X55.028 Y53.093 E119.55785
G1 X57.745 Y53.761 F7800.000
G1 X57.151 Y53.899 E119.58974 F1200.000
G1 X56.483 Y53.494 E119.63056
G1 X55.536 Y53.026 E119.68572
G1 X57.549 Y53.026 E119.79086
G1 X57.745 Y53.761 E119.83061
G1 X65.076 Y53.272 F7800.000
G1 X64.150 Y54.198 E119.89901 F1200.000
G1 X62.282 Y53.697 E120.00009
G1 X61.906 Y54.073 E120.02783
G1 X61.490 Y53.896 E120.05143
G1 X61.985 Y53.401 E120.08800
G1 X61.885 Y53.026 E120.10825
G1 X65.076 Y53.026 E120.27497
G1 X65.076 Y53.272 E120.28780
G1 X65.076 Y56.444 F7800.000
G1 X64.931 Y56.302 E120.29841 F1200.000
G1 X64.447 Y54.494 E120.39622
G1 X65.076 Y53.864 E120.44273
G1 X65.076 Y56.444 E120.57752
M106 S153
G1 Z1.600 F7800.000
G1 E118.57752 F2400.00000
G92 E0
G1 X65.432 Y67.330 F7800.000
G1 E2.00000 F2400.00000
G1 X54.568 Y67.330 E2.56761 F900.000
G1 X54.568 Y52.670 E3.33349
G1 X65.432 Y52.670 E3.90110
G1 X65.432 Y67.270 E4.66384
G1 X65.851 Y67.749 F7800.000
G1 X54.149 Y67.749 E5.27523 F900.000
G1 X54.149 Y52.251 E6.08487
G1 X65.851 Y52.251 E6.69625
G1 X65.851 Y67.689 E7.50276
G1 X66.228 Y68.126 F7800.000
G1 X53.772 Y68.126 E8.02420 F450.000
G1 X53.772 Y51.874 E8.70450
G1 X66.228 Y51.874 E9.22594
G1 X66.228 Y68.066 E9.90372
G1 X65.882 Y67.926 F7800.000
G1 E7.90372 F2400.00000
G92 E0
G1 X54.815 Y66.865 F7800.000
G1 E2.00000 F2400.00000
G1 X55.033 Y67.082 E2.01631 F900.000
G1 X55.633 Y67.082 E2.04813
G1 X54.815 Y66.264 E2.10943
G1 X54.815 Y65.664 E2.14125
G1 X56.234 Y67.082 E2.24754
G1 X56.834 Y67.082 E2.27936
G1 X54.815 Y65.063 E2.43065
G1 X54.815 Y64.462 E2.46247
G1 X57.435 Y67.082 E2.65876
G1 X58.036 Y67.082 E2.69057
G1 X54.815 Y63.862 E2.93185
G1 X54.815 Y63.261 E2.96367
G1 X58.636 Y67.082 E3.24995
G1 X59.237 Y67.082 E3.28176
G1 X54.815 Y62.660 E3.61303
G1 X54.815 Y62.060 E3.64485
G1 X59.838 Y67.082 E4.02111
G1 X60.438 Y67.082 E4.05293
G1 X54.815 Y61.459 E4.47419
G1 X54.815 Y60.859 E4.50600
G1 X61.039 Y67.082 E4.97226
G1 X61.639 Y67.082 E5.00407
G1 X54.815 Y60.258 E5.51532
G1 X54.815 Y59.657 E5.54714
G1 X62.240 Y67.082 E6.10338
G1 X62.841 Y67.082 E6.13520
G1 X54.815 Y59.057 E6.73643
G1 X54.815 Y58.456 E6.76825
G1 X63.441 Y67.082 E7.41448
G1 X64.042 Y67.082 E7.44630
G1 X54.815 Y57.855 E8.13752
G1 X54.815 Y57.255 E8.16934
G1 X64.643 Y67.082 E8.90556
G1 X65.185 Y67.024 E8.93446
G1 X54.815 Y56.654 E9.71132
G1 X54.815 Y56.054 E9.74314
G1 X65.185 Y66.424 E10.52000
G1 X65.185 Y65.823 E10.55181
G1 X54.815 Y55.453 E11.32867
G1 X54.815 Y54.852 E11.36049
G1 X65.185 Y65.222 E12.13735
G1 X65.185 Y64.622 E12.16916
G1 X54.815 Y54.252 E12.94602
G1 X54.815 Y53.651 E12.97784
G1 X65.185 Y64.021 E13.75470
G1 X65.185 Y63.421 E13.78651
G1 X54.815 Y53.050 E14.56337
G1 X55.283 Y52.918 E14.58913
G1 X65.185 Y62.820 E15.33095
G1 X65.185 Y62.219 E15.36277
G1 X55.883 Y52.918 E16.05959
G1 X56.484 Y52.918 E16.09141
G1 X65.185 Y61.619 E16.74324
G1 X65.185 Y61.018 E16.77506
G1 X57.084 Y52.918 E17.38190
G1 X57.685 Y52.918 E17.41371
G1 X65.185 Y60.417 E17.97556
G1 X65.185 Y59.817 E18.00737
G1 X58.286 Y52.918 E18.52422
G1 X58.886 Y52.918 E18.55604
G1 X65.185 Y59.216 E19.02790
G1 X65.185 Y58.616 E19.05971
G1 X59.487 Y52.918 E19.48657
G1 X60.088 Y52.918 E19.51839
G1 X65.185 Y58.015 E19.90026
G1 X65.185 Y57.414 E19.93207
G1 X60.688 Y52.918 E20.26894
G1 X61.289 Y52.918 E20.30076
G1 X62.424 Y54.053 E20.38580
G1 X62.564 Y53.592 E20.41131
G1 X61.889 Y52.918 E20.46184
G1 X62.490 Y52.918 E20.49365
G1 X62.704 Y53.131 E20.50967
G1 X62.796 Y54.594 F7800.000
M106 S255
G1 X62.517 Y54.314 E20.54062 F3600.000
G1 X62.694 Y53.729 E20.58853
G1 X65.176 Y56.210 E20.86329
G1 X65.176 Y55.447 E20.92304
G1 X62.872 Y53.143 E21.17812
G1 X63.419 Y52.926 E21.22416
G1 X65.176 Y54.684 E21.41872
G1 X65.176 Y53.921 E21.47847
G1 X64.182 Y52.926 E21.58854
G1 X64.945 Y52.926 E21.64829
G1 X65.176 Y53.157 E21.67386
M106 S153
M106 S201.45
G1 Z1.900 F7800.000
G1 E19.67386 F2400.00000
G92 E0
G1 X61.452 Y67.379 F7800.000
G1 E2.00000 F2400.00000
G1 X60.787 Y67.214 E2.03576 F900.000
G1 X60.757 Y66.873 E2.05365
G1 X61.404 Y66.999 E2.08809
G1 X61.444 Y67.319 E2.10498
G1 X61.885 Y67.803 F7800.000
G1 X61.225 Y67.711 E2.13290 F900.000
G1 X60.436 Y67.515 E2.16694
G1 X60.340 Y66.453 E2.21156
G1 X60.700 Y66.477 E2.22666
G1 X61.744 Y66.680 E2.27117
